; HEADER_BLOCK_START
; generated by OrcaSlicer 2.2.0 on 2025-03-12 at 14:02:39
; total layer number: 83
; filament_density: 1.24
; filament_diameter: 1.75
; max_z_height: 10.04
; HEADER_BLOCK_END

; THUMBNAIL_BLOCK_START

;
; THUMBNAIL_BLOCK_END

; THUMBNAIL_BLOCK_START

;
; THUMBNAIL_BLOCK_END

; external perimeters extrusion width = 0.40mm
; perimeters extrusion width = 0.40mm
; infill extrusion width = 0.40mm
; solid infill extrusion width = 0.40mm
; top infill extrusion width = 0.40mm
; first layer extrusion width = 0.40mm

; external perimeters extrusion width = 0.40mm
; perimeters extrusion width = 0.40mm
; infill extrusion width = 0.40mm
; solid infill extrusion width = 0.40mm
; top infill extrusion width = 0.40mm
; first layer extrusion width = 0.40mm

; EXECUTABLE_BLOCK_START
M73 P0 R79
M201 X500 Y500 Z500 E5000
M203 X500 Y500 Z10 E60
M204 P500 R1000 T500
M205 X8.00 Y8.00 Z0.40 E5.00 ; sets the jerk limits, mm/sec
;TYPE:Custom
G90 ; use absolute coordinates
M83 ; extruder relative mode
M140 S60 ; set final bed temp
M104 S150 ; set temporary nozzle temp to prevent oozing during homing
G4 S10 ; allow partial nozzle warmup
G28 ; home all axis
G1 Z50 F240
G1 X2 Y10 F3000
M104 S220 ; set final nozzle temp
M190 S60 ; wait for bed temp to stabilize
M109 S220 ; wait for nozzle temp to stabilize
G1 Z0.28 F240
G92 E0
G1 Y140 E10 F1500 ; prime the nozzle
G1 X2.3 F5000
G92 E0
G1 Y10 E10 F1200 ; prime the nozzle
G92 E0
G90
G21
M83 ; use relative distances for extrusion
; filament start gcode
M106 S0
;LAYER_CHANGE
;Z:0.2
;HEIGHT:0.2
;BEFORE_LAYER_CHANGE
;0.2
G92 E0

G1 E-5 F3600
M73 P0 R78
;_SET_FAN_SPEED_CHANGING_LAYER
M204 S500
M73 P0 R78
G1 Z.6 F9000
G1 X99.455 Y91.361
G1 Z.6
G1 Z.2
G1 E5 F2400
;TYPE:Skirt
;WIDTH:0.4
G1 F3000
G1 X99.58 Y90.976 E.01178
G1 X100.516 Y88.874 E.06694
G1 X101.205 Y87.68 E.04012
G1 X102.558 Y85.819 E.06694
G1 X103.48 Y84.794 E.04012
G1 X105.19 Y83.255 E.06694
G1 X106.305 Y82.445 E.04012
G1 X108.298 Y81.294 E.06694
G1 X109.557 Y80.734 E.04012
G1 X111.745 Y80.023 E.06694
G1 X113.094 Y79.736 E.04012
G1 X115.382 Y79.495 E.06694
G1 X116.761 Y79.495 E.04012
G1 X119.199 Y79.762 E.07136
G1 X121.575 Y80.366 E.07135
G1 X123.845 Y81.294 E.07136
G1 X125.838 Y82.445 E.06694
G1 X126.833 Y83.161 E.0357
G1 X128.768 Y84.904 E.07577
G1 X130.336 Y86.789 E.07135
G1 X131.627 Y88.874 E.07136
G1 X132.615 Y91.119 E.07135
G1 X133.28 Y93.479 E.07135
G1 X133.607 Y95.833 E.06915
G1 X136.468 Y136.79 E1.19466
G1 X136.468 Y139.091 E.06694
G1 X136.324 Y140.462 E.04012
G1 X135.846 Y142.713 E.06694
G1 X135.42 Y144.024 E.04012
G1 X134.718 Y145.646 E.05142
G1 X133.875 Y147.191 E.05121
G1 X133.104 Y148.334 E.04012
G1 X131.625 Y150.096 E.06694
G1 X129.69 Y151.839 E.07577
G1 X127.783 Y153.125 E.06694
G1 X126.566 Y153.772 E.04012
G1 X125.443 Y154.266 E.0357
G1 X123.255 Y154.977 E.06694
G1 X121.906 Y155.264 E.04012
G1 X119.618 Y155.505 E.06694
G1 X117.167 Y155.43 E.07135
G1 X114.602 Y154.977 E.07577
G1 X113.425 Y154.634 E.0357
G1 X111.786 Y153.992 E.05121
G1 X110.206 Y153.201 E.05142
G1 X109.162 Y152.555 E.0357
G1 X107.224 Y151.054 E.07136
G1 X105.415 Y149.181 E.07577
G1 X103.982 Y147.191 E.07136
G1 X103.373 Y146.126 E.0357
G1 X102.437 Y144.024 E.06694
G1 X101.751 Y141.67 E.07136
G1 X101.393 Y139.167 E.07357
G1 X98.532 Y98.21 E1.19466
G1 X98.532 Y95.909 E.06694
G1 X98.676 Y94.538 E.04012
G1 X99.154 Y92.287 E.06694
G1 X99.443 Y91.399 E.02717
; printing object bar_end_adapter.stl id:8905052474 copy 0
G1 E-3.8 F3600
;WIPE_START
G1 F3000
G1 X99.58 Y90.976 E-.53392
G1 X99.806 Y90.469 E-.66608
;WIPE_END
G1 Z.6 F9000
G1 X104.584 Y135.925 Z.6
G1 Z.2
G1 E5 F2400
;TYPE:Inner wall
;WIDTH:0.399999
G1 F900
G1 X104.76 Y134.929 E.02942
G1 X105.004 Y133.948 E.02942
G1 X105.317 Y132.986 E.02942
G1 X105.696 Y132.049 E.02942
G1 X106.139 Y131.14 E.02942
G1 X106.644 Y130.265 E.02942
G1 X107.21 Y129.426 E.02942
G1 X107.832 Y128.63 E.02942
G1 X108.509 Y127.878 E.02942
G1 X109.236 Y127.176 E.02942
G1 X110.01 Y126.526 E.02942
G1 X110.828 Y125.932 E.02942
G1 X111.686 Y125.396 E.02942
G1 X112.579 Y124.921 E.02942
G1 X113.502 Y124.51 E.02942
G1 X114.452 Y124.164 E.02942
G1 X115.424 Y123.886 E.02942
G1 X116.413 Y123.675 E.02942
G1 X117.414 Y123.535 E.02942
G1 X118.423 Y123.464 E.02942
G1 X119.434 Y123.464 E.02942
G1 X120.443 Y123.535 E.02942
G1 X121.444 Y123.675 E.02942
G1 X122.433 Y123.886 E.02942
G1 X123.405 Y124.164 E.02942
G1 X124.355 Y124.51 E.02942
G1 X125.278 Y124.921 E.02942
G1 X126.171 Y125.396 E.02942
G1 X127.029 Y125.932 E.02942
G1 X127.847 Y126.526 E.02942
G1 X128.621 Y127.176 E.02942
G1 X129.348 Y127.878 E.02942
G1 X130.025 Y128.63 E.02942
G1 X130.647 Y129.426 E.02942
G1 X131.213 Y130.265 E.02942
G1 X131.718 Y131.14 E.02942
G1 X132.161 Y132.049 E.02942
G1 X132.54 Y132.986 E.02942
G1 X132.853 Y133.948 E.02942
G1 X133.097 Y134.929 E.02942
G1 X133.273 Y135.925 E.02942
G1 X133.378 Y136.93 E.02942
G1 X133.408 Y138.116 E.03452
G1 X133.378 Y138.951 E.0243
G1 X133.273 Y139.957 E.02942
G1 X133.097 Y140.952 E.02942
G1 X132.853 Y141.933 E.02942
G1 X132.54 Y142.895 E.02942
G1 X132.161 Y143.832 E.02942
G1 X131.718 Y144.741 E.02942
G1 X131.213 Y145.617 E.02942
G1 X130.647 Y146.455 E.02942
G1 X130.025 Y147.252 E.02942
G1 X129.348 Y148.003 E.02942
G1 X128.621 Y148.705 E.02942
G1 X127.847 Y149.355 E.02942
G1 X127.029 Y149.95 E.02942
G1 X126.171 Y150.485 E.02942
G1 X125.278 Y150.96 E.02942
G1 X124.355 Y151.371 E.02942
G1 X123.405 Y151.717 E.02942
G1 X122.433 Y151.996 E.02942
G1 X121.444 Y152.206 E.02942
G1 X120.443 Y152.347 E.02942
G1 X119.434 Y152.417 E.02942
M73 P1 R78
M73 P1 R78
G1 X118.423 Y152.417 E.02942
G1 X117.414 Y152.347 E.02942
G1 X116.413 Y152.206 E.02942
G1 X115.424 Y151.996 E.02942
G1 X114.452 Y151.717 E.02942
G1 X113.502 Y151.371 E.02942
G1 X112.579 Y150.96 E.02942
G1 X111.686 Y150.485 E.02942
G1 X110.828 Y149.95 E.02942
G1 X110.01 Y149.355 E.02942
G1 X109.236 Y148.705 E.02942
G1 X108.509 Y148.003 E.02942
G1 X107.832 Y147.252 E.02942
G1 X107.21 Y146.455 E.02942
G1 X106.644 Y145.617 E.02942
G1 X106.139 Y144.741 E.02942
G1 X105.696 Y143.832 E.02942
G1 X105.317 Y142.895 E.02942
G1 X105.004 Y141.933 E.02942
G1 X104.76 Y140.952 E.02942
G1 X104.584 Y139.957 E.02942
G1 X104.478 Y138.951 E.02942
G1 X104.443 Y137.941 E.02942
G1 X104.478 Y136.93 E.02942
G1 X104.58 Y135.965 E.02826
G1 X104.23 Y135.875 F9000
G1 F900
G1 X104.41 Y134.855 E.03014
G1 X104.661 Y133.85 E.03015
G1 X104.981 Y132.864 E.03014
G1 X105.369 Y131.904 E.03015
G1 X105.823 Y130.973 E.03015
G1 X106.341 Y130.075 E.03014
G1 X106.921 Y129.216 E.03015
G1 X107.558 Y128.4 E.03014
G1 X108.252 Y127.63 E.03014
G1 X108.997 Y126.911 E.03015
G1 X109.79 Y126.245 E.03014
G1 X110.629 Y125.636 E.03015
G1 X111.507 Y125.087 E.03014
G1 X112.422 Y124.6 E.03014
G1 X113.368 Y124.179 E.03015
G1 X114.342 Y123.825 E.03014
G1 X115.338 Y123.539 E.03014
G1 X116.351 Y123.324 E.03015
G1 X117.377 Y123.179 E.03014
G1 X118.411 Y123.107 E.03015
G1 X119.446 Y123.107 E.03014
G1 X120.48 Y123.179 E.03015
G1 X121.506 Y123.324 E.03014
G1 X122.519 Y123.539 E.03015
G1 X123.515 Y123.825 E.03014
G1 X124.489 Y124.179 E.03014
G1 X125.435 Y124.6 E.03015
G1 X126.35 Y125.087 E.03014
G1 X127.228 Y125.636 E.03014
G1 X128.066 Y126.245 E.03014
G1 X128.86 Y126.911 E.03015
G1 X129.605 Y127.63 E.03015
G1 X130.299 Y128.4 E.03014
G1 X130.936 Y129.216 E.03014
G1 X131.516 Y130.075 E.03015
G1 X132.034 Y130.973 E.03014
G1 X132.488 Y131.904 E.03015
G1 X132.876 Y132.864 E.03015
G1 X133.196 Y133.85 E.03014
G1 X133.447 Y134.855 E.03015
G1 X133.627 Y135.875 E.03014
G1 X133.735 Y136.905 E.03015
G1 X133.765 Y138.129 E.03561
G1 X133.735 Y138.976 E.02467
G1 X133.627 Y140.006 E.03015
G1 X133.447 Y141.027 E.03014
G1 X133.196 Y142.032 E.03015
G1 X132.876 Y143.017 E.03014
G1 X132.488 Y143.978 E.03015
G1 X132.034 Y144.909 E.03015
G1 X131.516 Y145.806 E.03014
G1 X130.936 Y146.665 E.03015
G1 X130.299 Y147.481 E.03014
G1 X129.605 Y148.251 E.03014
G1 X128.86 Y148.971 E.03015
G1 X128.067 Y149.637 E.03014
G1 X127.228 Y150.246 E.03015
G1 X126.35 Y150.795 E.03014
G1 X125.435 Y151.281 E.03014
G1 X124.489 Y151.703 E.03015
G1 X123.515 Y152.057 E.03014
G1 X122.519 Y152.342 E.03014
G1 X121.506 Y152.558 E.03015
G1 X120.48 Y152.702 E.03014
G1 X119.446 Y152.774 E.03015
G1 X118.411 Y152.774 E.03014
G1 X117.377 Y152.702 E.03015
G1 X116.351 Y152.558 E.03014
G1 X115.338 Y152.342 E.03015
G1 X114.342 Y152.057 E.03014
G1 X113.368 Y151.703 E.03014
G1 X112.422 Y151.281 E.03015
G1 X111.507 Y150.795 E.03014
G1 X110.629 Y150.246 E.03014
G1 X109.791 Y149.637 E.03014
G1 X108.997 Y148.971 E.03015
G1 X108.252 Y148.251 E.03015
G1 X107.558 Y147.481 E.03014
G1 X106.921 Y146.665 E.03014
G1 X106.341 Y145.806 E.03015
G1 X105.823 Y144.909 E.03014
G1 X105.369 Y143.978 E.03015
G1 X104.981 Y143.017 E.03015
G1 X104.661 Y142.032 E.03014
G1 X104.41 Y141.027 E.03015
G1 X104.23 Y140.006 E.03014
G1 X104.122 Y138.976 E.03015
G1 X104.086 Y137.941 E.03014
G1 X104.122 Y136.905 E.03014
G1 X104.226 Y135.915 E.02898
G1 X103.876 Y135.832 F9000
;TYPE:Outer wall
G1 F900
G1 X103.877 Y135.825 E.00021
G1 X104.061 Y134.78 E.03087
G1 X104.317 Y133.751 E.03087
G1 X104.645 Y132.742 E.03087
G1 X105.043 Y131.758 E.03087
G1 X105.508 Y130.805 E.03087
G1 X106.038 Y129.886 E.03087
G1 X106.632 Y129.006 E.03087
G1 X107.285 Y128.17 E.03087
G1 X107.995 Y127.382 E.03087
G1 X108.758 Y126.645 E.03087
G1 X109.571 Y125.963 E.03087
G1 X110.429 Y125.339 E.03087
G1 X111.329 Y124.777 E.03087
G1 X112.265 Y124.279 E.03087
G1 X113.235 Y123.848 E.03087
G1 X114.231 Y123.485 E.03087
G1 X115.251 Y123.192 E.03087
G1 X116.289 Y122.972 E.03087
G1 X117.34 Y122.824 E.03087
G1 X118.398 Y122.75 E.03087
G1 X119.459 Y122.75 E.03087
G1 X120.517 Y122.824 E.03087
G1 X121.568 Y122.972 E.03087
G1 X122.606 Y123.192 E.03087
G1 X123.626 Y123.485 E.03087
G1 X124.622 Y123.848 E.03087
G1 X125.592 Y124.279 E.03087
G1 X126.528 Y124.777 E.03087
G1 X127.428 Y125.339 E.03087
G1 X128.286 Y125.963 E.03087
G1 X129.099 Y126.645 E.03087
G1 X129.862 Y127.382 E.03087
G1 X130.572 Y128.17 E.03087
G1 X131.225 Y129.006 E.03087
G1 X131.819 Y129.886 E.03087
G1 X132.349 Y130.805 E.03087
G1 X132.814 Y131.758 E.03087
G1 X133.212 Y132.742 E.03087
G1 X133.54 Y133.751 E.03087
G1 X133.796 Y134.78 E.03087
G1 X133.98 Y135.825 E.03087
G1 X134.091 Y136.88 E.03087
G1 X134.121 Y138.141 E.0367
G1 X134.091 Y139.001 E.02503
G1 X133.98 Y140.056 E.03087
G1 X133.796 Y141.101 E.03087
G1 X133.54 Y142.13 E.03087
G1 X133.212 Y143.139 E.03087
G1 X132.814 Y144.123 E.03087
G1 X132.349 Y145.077 E.03087
G1 X131.819 Y145.995 E.03087
G1 X131.225 Y146.875 E.03087
G1 X130.572 Y147.711 E.03087
G1 X129.862 Y148.499 E.03087
G1 X129.099 Y149.236 E.03087
G1 X128.286 Y149.918 E.03087
G1 X127.428 Y150.542 E.03087
G1 X126.528 Y151.104 E.03087
G1 X125.592 Y151.602 E.03087
G1 X124.622 Y152.034 E.03087
G1 X123.626 Y152.397 E.03087
G1 X122.606 Y152.689 E.03087
G1 X121.568 Y152.91 E.03087
G1 X120.517 Y153.057 E.03087
G1 X119.459 Y153.131 E.03087
G1 X118.398 Y153.131 E.03087
G1 X117.34 Y153.057 E.03087
G1 X116.289 Y152.91 E.03087
G1 X115.251 Y152.689 E.03087
G1 X114.231 Y152.397 E.03087
G1 X113.235 Y152.034 E.03087
G1 X112.265 Y151.602 E.03087
G1 X111.329 Y151.104 E.03087
G1 X110.429 Y150.542 E.03087
G1 X109.571 Y149.918 E.03087
G1 X108.758 Y149.236 E.03087
G1 X107.995 Y148.499 E.03087
G1 X107.285 Y147.711 E.03087
G1 X106.632 Y146.875 E.03087
G1 X106.038 Y145.995 E.03087
G1 X105.508 Y145.077 E.03087
G1 X105.043 Y144.123 E.03087
G1 X104.645 Y143.139 E.03087
G1 X104.317 Y142.13 E.03087
G1 X104.061 Y141.101 E.03087
G1 X103.877 Y140.056 E.03087
G1 X103.766 Y139.001 E.03087
G1 X103.729 Y137.941 E.03087
G1 X103.766 Y136.88 E.03087
G1 X103.872 Y135.872 E.0295
G1 E-3.5 F3600
;WIPE_START
G1 F900
G1 X103.877 Y135.825 E-.07072
G1 X104.042 Y134.887 E-1.42928
;WIPE_END
G1 Z.6 F9000
G1 X116.107 Y134.584 Z.6
G1 Z.2
G1 E5 F2400
;TYPE:Inner wall
G1 F900
G1 X116.356 Y134.362 E.00969
G1 X117.155 Y133.903 E.02684
G1 X117.794 Y133.677 E.01972
G1 X118.644 Y133.543 E.02502
G1 X119.563 Y133.579 E.02679
G1 X120.456 Y133.807 E.02681
G1 X121.283 Y134.215 E.02682
G1 X122.006 Y134.786 E.02679
G1 X122.594 Y135.494 E.02681
G1 X123.023 Y136.31 E.02683
G1 X123.231 Y136.962 E.0199
G1 X123.334 Y137.81 E.02484
G1 X123.306 Y138.493 E.01991
G1 X123.113 Y139.323 E.0248
G1 X122.734 Y140.163 E.02681
G1 X122.189 Y140.906 E.02681
G1 X121.501 Y141.519 E.02681
G1 X120.702 Y141.978 E.02684
G1 X120.063 Y142.205 E.01972
G1 X119.213 Y142.339 E.02502
G1 X118.293 Y142.302 E.02679
G1 X117.401 Y142.075 E.02681
G1 X116.574 Y141.666 E.02682
G1 X115.851 Y141.096 E.02679
G1 X115.263 Y140.387 E.02681
G1 X114.834 Y139.571 E.02683
G1 X114.626 Y138.919 E.0199
G1 X114.523 Y138.072 E.02484
G1 X114.551 Y137.388 E.01991
G1 X114.744 Y136.558 E.0248
G1 X115.123 Y135.718 E.02681
G1 X115.668 Y134.976 E.02681
G1 X116.077 Y134.611 E.01596
G1 X116.348 Y134.845 F9000
G1 F900
G1 X116.585 Y134.636 E.00921
G1 X117.324 Y134.218 E.02471
G1 X117.907 Y134.016 E.01795
G1 X118.693 Y133.896 E.02314
G1 X119.539 Y133.936 E.02462
G1 X120.358 Y134.15 E.02465
G1 X121.115 Y134.53 E.02466
G1 X121.776 Y135.059 E.02462
G1 X122.313 Y135.714 E.02464
G1 X122.702 Y136.467 E.02466
G1 X122.888 Y137.061 E.01809
G1 X122.979 Y137.847 E.02303
G1 X122.95 Y138.468 E.0181
G1 X122.767 Y139.237 E.02299
G1 X122.413 Y140.006 E.02464
G1 X121.908 Y140.686 E.02465
G1 X121.272 Y141.245 E.02464
G1 X120.533 Y141.664 E.02471
G1 X119.95 Y141.866 E.01795
G1 X119.164 Y141.985 E.02314
G1 X118.318 Y141.946 E.02462
G1 X117.499 Y141.731 E.02465
G1 X116.742 Y141.351 E.02466
G1 X116.081 Y140.822 E.02462
G1 X115.544 Y140.167 E.02464
G1 X115.155 Y139.414 E.02466
G1 X114.969 Y138.821 E.01809
G1 X114.878 Y138.035 E.02303
G1 X114.907 Y137.413 E.0181
G1 X115.09 Y136.645 E.02299
G1 X115.444 Y135.875 E.02464
G1 X115.949 Y135.195 E.02465
G1 X116.317 Y134.872 E.01427
G1 X116.585 Y135.109 F9000
;TYPE:Outer wall
G1 F900
G1 X116.815 Y134.91 E.00885
G1 X117.493 Y134.533 E.02258
G1 X118.02 Y134.355 E.01618
G1 X118.743 Y134.25 E.02126
G1 X119.514 Y134.292 E.02246
G1 X120.26 Y134.493 E.02248
G1 X120.948 Y134.846 E.0225
G1 X121.547 Y135.333 E.02246
G1 X122.032 Y135.934 E.02248
G1 X122.381 Y136.624 E.0225
G1 X122.545 Y137.159 E.01629
G1 X122.624 Y137.884 E.02123
G1 X122.594 Y138.443 E.01629
G1 X122.42 Y139.15 E.02119
G1 X122.092 Y139.85 E.02248
G1 X121.626 Y140.466 E.02248
G1 X121.042 Y140.972 E.02248
G1 X120.364 Y141.349 E.02258
G1 X119.837 Y141.527 E.01618
G1 X119.114 Y141.632 E.02126
G1 X118.343 Y141.589 E.02246
G1 X117.597 Y141.388 E.02248
G1 X116.909 Y141.036 E.0225
G1 X116.31 Y140.549 E.02246
G1 X115.825 Y139.947 E.02248
G1 X115.476 Y139.258 E.0225
G1 X115.312 Y138.722 E.01629
G1 X115.233 Y137.997 E.02123
G1 X115.263 Y137.438 E.01629
G1 X115.437 Y136.731 E.02119
G1 X115.764 Y136.032 E.02248
G1 X116.231 Y135.415 E.02248
G1 X116.555 Y135.135 E.01247
G1 E-3.5 F3600
;WIPE_START
G1 F900
G1 X116.815 Y134.91 E-.51605
G1 X117.388 Y134.591 E-.98395
;WIPE_END
G1 Z.6 F9000
G1 X127.485 Y126.396
G1 Z.6
G1 Z.2
G1 E5 F2400
;TYPE:Bottom surface
;WIDTH:0.402764
G1 F1200
G1 X129.173 Y128.084 E.06999
G1 X129.82 Y128.802 E.02834
G1 X130.431 Y129.584 E.0291
G1 X130.982 Y130.402 E.02894
G1 X126.494 Y125.913 E.18614
G1 X126.037 Y125.628 E.01578
G1 X125.316 Y125.245 E.02395
G1 X131.619 Y131.548 E.26137
G1 X131.917 Y132.158 E.01991
G1 X132.05 Y132.487 E.01041
G1 X124.375 Y124.812 E.31827
G1 X123.559 Y124.506 E.02555
G1 X132.364 Y133.31 E.36512
G1 X132.605 Y134.06 E.02308
G1 X122.82 Y124.275 E.40575
G1 X122.131 Y124.095 E.02088
G1 X132.774 Y134.738 E.44133
G1 X132.904 Y135.378 E.01915
G1 X121.485 Y123.958 E.47355
G1 X120.885 Y123.867 E.01778
G1 X133.01 Y135.992 E.5028
G1 X133.064 Y136.555 E.01656
G1 X120.303 Y123.793 E.52919
G1 X119.755 Y123.755 E.01608
G1 X133.117 Y137.117 E.55409
G1 X133.135 Y137.644 E.01547
G1 X119.231 Y123.74 E.57658
G1 X118.717 Y123.735 E.01508
G1 X133.138 Y138.156 E.59802
G1 X133.121 Y138.648 E.01443
G1 X118.22 Y123.747 E.61791
G1 X117.745 Y123.78 E.01398
G1 X133.091 Y139.126 E.63638
G1 X133.042 Y139.587 E.01358
G1 X117.28 Y123.824 E.65365
G1 X116.834 Y123.887 E.01321
G1 X132.986 Y140.039 E.66983
G1 X132.91 Y140.472 E.01288
G1 X116.392 Y123.954 E.68499
