; HEADER_BLOCK_START
; generated by OrcaSlicer 2.2.0 on 2025-03-21 at 16:08:58
; total layer number: 121
; filament_density: 1.24
; filament_diameter: 1.75
; max_z_height: 29.00
; HEADER_BLOCK_END

; THUMBNAIL_BLOCK_START

;
; THUMBNAIL_BLOCK_END

; THUMBNAIL_BLOCK_START

;
; THUMBNAIL_BLOCK_END

; external perimeters extrusion width = 0.50mm
; perimeters extrusion width = 0.40mm
; infill extrusion width = 0.40mm
; solid infill extrusion width = 0.50mm
; top infill extrusion width = 0.50mm
; first layer extrusion width = 0.40mm

; external perimeters extrusion width = 0.50mm
; perimeters extrusion width = 0.40mm
; infill extrusion width = 0.40mm
; solid infill extrusion width = 0.50mm
; top infill extrusion width = 0.50mm
; first layer extrusion width = 0.40mm

; external perimeters extrusion width = 0.50mm
; perimeters extrusion width = 0.40mm
; infill extrusion width = 0.40mm
; solid infill extrusion width = 0.50mm
; top infill extrusion width = 0.50mm
; first layer extrusion width = 0.40mm

; external perimeters extrusion width = 0.50mm
; perimeters extrusion width = 0.40mm
; infill extrusion width = 0.40mm
; solid infill extrusion width = 0.50mm
; top infill extrusion width = 0.50mm
; first layer extrusion width = 0.40mm

; external perimeters extrusion width = 0.50mm
; perimeters extrusion width = 0.40mm
; infill extrusion width = 0.40mm
; solid infill extrusion width = 0.50mm
; top infill extrusion width = 0.50mm
; first layer extrusion width = 0.40mm

; external perimeters extrusion width = 0.50mm
; perimeters extrusion width = 0.40mm
; infill extrusion width = 0.40mm
; solid infill extrusion width = 0.50mm
; top infill extrusion width = 0.50mm
; first layer extrusion width = 0.40mm

; external perimeters extrusion width = 0.50mm
; perimeters extrusion width = 0.40mm
; infill extrusion width = 0.40mm
; solid infill extrusion width = 0.50mm
; top infill extrusion width = 0.50mm
; first layer extrusion width = 0.40mm

; external perimeters extrusion width = 0.50mm
; perimeters extrusion width = 0.40mm
; infill extrusion width = 0.40mm
; solid infill extrusion width = 0.50mm
; top infill extrusion width = 0.50mm
; first layer extrusion width = 0.40mm

; external perimeters extrusion width = 0.50mm
; perimeters extrusion width = 0.40mm
; infill extrusion width = 0.40mm
; solid infill extrusion width = 0.50mm
; top infill extrusion width = 0.50mm
; first layer extrusion width = 0.40mm

; external perimeters extrusion width = 0.50mm
; perimeters extrusion width = 0.40mm
; infill extrusion width = 0.40mm
; solid infill extrusion width = 0.50mm
; top infill extrusion width = 0.50mm
; first layer extrusion width = 0.40mm

; EXECUTABLE_BLOCK_START
M73 P0 R269
M201 X500 Y500 Z500 E5000
M203 X500 Y500 Z10 E60
M204 P500 R1000 T500
M205 X8.00 Y8.00 Z0.40 E5.00 ; sets the jerk limits, mm/sec
;TYPE:Custom
G90 ; use absolute coordinates
M83 ; extruder relative mode
M140 S60 ; set final bed temp
M104 S150 ; set temporary nozzle temp to prevent oozing during homing
G4 S10 ; allow partial nozzle warmup
G28 ; home all axis
G1 Z50 F240
G1 X2 Y10 F3000
M104 S220 ; set final nozzle temp
M190 S60 ; wait for bed temp to stabilize
M109 S220 ; wait for nozzle temp to stabilize
G1 Z0.28 F240
G92 E0
G1 Y140 E10 F1500 ; prime the nozzle
G1 X2.3 F5000
M73 P0 R268
G92 E0
M73 P0 R268
G1 Y10 E10 F1200 ; prime the nozzle
G92 E0
G90
G21
M83 ; use relative distances for extrusion
; filament start gcode
M106 S0
;LAYER_CHANGE
;Z:0.2
;HEIGHT:0.2
;BEFORE_LAYER_CHANGE
;0.2
G92 E0

G1 E-5 F3600
;_SET_FAN_SPEED_CHANGING_LAYER
M204 S500
G1 Z.6 F9000
G1 X72.332 Y56.981
G1 Z.6
G1 Z.2
G1 E5 F2400
;TYPE:Skirt
;WIDTH:0.4
G1 F3000
G1 X89.937 Y29.755 E.9434
G1 X90.941 Y28.922 E.03797
G1 X91.766 Y28.76 E.02447
G1 X94.029 Y28.76 E.06584
G1 X95.207 Y29.106 E.03572
G1 X190.276 Y90.218 E3.2885
G1 X190.882 Y90.801 E.02448
G1 X196.796 Y99.247 E.29999
G1 X197.181 Y100.303 E.0327
G1 X205.843 Y197.331 E2.83451
G1 X205.458 Y198.774 E.04346
G1 X200.882 Y205.31 E.23214
G1 X199.848 Y206.105 E.03797
G1 X199.098 Y206.239 E.02217
G1 X138.308 Y206.24 E1.76884
G1 X87.12 Y202.616 E1.49317
G1 X86.045 Y202.242 E.0331
G1 X31.643 Y165.098 E1.91673
G1 X30.795 Y163.958 E.04134
G1 X29.278 Y159.18 E.14588
G1 X29.259 Y157.925 E.0365
G1 X46.557 Y97.016 E1.84241
G1 X46.824 Y96.428 E.01878
G1 X72.31 Y57.015 E1.3657
; printing object combined.stl_12 id:86173748 copy 0
G1 E-3.8 F3600
;WIPE_START
G1 F3000
G1 X72.853 Y56.175 E-1.2
;WIPE_END
G1 Z.6 F9000
G1 X105.551 Y64.65 Z.6
G1 Z.2
G1 E5 F2400
;TYPE:Inner wall
;WIDTH:0.399999
G1 F900
G1 X105.582 Y64.472 E.00526
G1 X105.659 Y64.311 E.00519
G1 X105.917 Y64.039 E.0109
G1 X106.304 Y63.882 E.01216
G1 X115.079 Y63.882 E.25533
G1 X115.461 Y63.968 E.01138
G1 X115.729 Y64.162 E.00963
G1 X115.916 Y64.463 E.01032
G1 X115.972 Y64.775 E.00921
G1 X115.972 Y67.059 E.06648
G1 X115.902 Y67.405 E.01026
G1 X115.695 Y67.706 E.01063
G1 X115.463 Y67.865 E.00819
G1 X115.079 Y67.952 E.01145
G1 X106.422 Y67.952 E.2519
G1 X106.007 Y67.85 E.01243
G1 X105.776 Y67.675 E.00844
G1 X105.588 Y67.377 E.01025
G1 X105.529 Y67.059 E.00941
G1 X105.529 Y64.775 E.06648
G1 X105.544 Y64.689 E.00252
G1 X105.905 Y64.693 F9000
G1 F900
G1 X105.939 Y64.543 E.00447
G1 X106.119 Y64.333 E.00804
G1 X106.351 Y64.239 E.0073
G1 X115.079 Y64.239 E.25396
G1 X115.388 Y64.337 E.00944
G1 X115.581 Y64.588 E.0092
G1 X115.615 Y64.775 E.00552
G1 X115.615 Y67.059 E.06648
G1 X115.553 Y67.308 E.00746
G1 X115.449 Y67.447 E.00506
G1 X115.309 Y67.543 E.00491
G1 X115.079 Y67.595 E.00687
G1 X106.422 Y67.595 E.2519
G1 X106.173 Y67.534 E.00746
G1 X105.97 Y67.347 E.00804
G1 X105.886 Y67.123 E.00693
G1 X105.886 Y64.775 E.06834
G1 X105.896 Y64.732 E.00128
G1 X106.265 Y64.775 F9000
;TYPE:Outer wall
G1 F900
G1 X106.288 Y64.693 E.00247
G1 X106.399 Y64.618 E.00391
G1 X115.079 Y64.618 E.25257
G1 X115.193 Y64.667 E.00362
G1 X115.236 Y64.775 E.00337
G1 X115.236 Y67.059 E.06648
G1 X115.188 Y67.173 E.0036
G1 X115.079 Y67.216 E.00339
G1 X106.422 Y67.216 E.2519
G1 X106.265 Y67.13 E.00521
G1 X106.265 Y64.815 E.06737
G1 E-3.5 F3600
;WIPE_START
G1 F900
G1 X106.288 Y64.693 E-.18565
G1 X106.399 Y64.618 E-.20169
G1 X107.141 Y64.618 E-1.11266
;WIPE_END
G1 Z.6 F9000
G1 X115.948 Y72.565 Z.6
G1 Z.2
G1 E5 F2400
;TYPE:Inner wall
G1 F900
G1 X115.915 Y72.749 E.00545
G1 X115.726 Y73.051 E.01037
G1 X115.453 Y73.246 E.00977
G1 X115.149 Y73.328 E.00914
G1 X106.422 Y73.328 E.25394
G1 X106.058 Y73.25 E.01084
G1 X105.838 Y73.111 E.00757
G1 X105.617 Y72.822 E.01058
G1 X105.529 Y72.568 E.00784
G1 X105.529 Y70.151 E.07032
G1 X105.588 Y69.833 E.00941
G1 X105.776 Y69.535 E.01025
G1 X106.007 Y69.36 E.00844
G1 X106.422 Y69.258 E.01243
G1 X115.079 Y69.258 E.2519
G1 X115.463 Y69.345 E.01145
G1 X115.695 Y69.504 E.00819
G1 X115.902 Y69.805 E.01063
G1 X115.972 Y70.151 E.01026
G1 X115.972 Y72.436 E.06648
G1 X115.956 Y72.525 E.00266
G1 X115.592 Y72.526 F9000
G1 F900
G1 X115.55 Y72.69 E.00495
G1 X115.37 Y72.886 E.00774
G1 X115.123 Y72.971 E.00759
G1 X106.422 Y72.971 E.25319
G1 X106.203 Y72.925 E.0065
G1 X106.007 Y72.774 E.0072
G1 X105.886 Y72.515 E.00832
G1 X105.886 Y70.151 E.06878
G1 X105.938 Y69.92 E.00688
G1 X106.034 Y69.781 E.00492
G1 X106.173 Y69.677 E.00506
G1 X106.422 Y69.615 E.00746
G1 X115.079 Y69.615 E.2519
G1 X115.309 Y69.667 E.00687
G1 X115.518 Y69.844 E.00795
G1 X115.615 Y70.083 E.0075
G1 X115.615 Y72.436 E.06846
G1 X115.602 Y72.487 E.00154
G1 X115.236 Y72.436 F9000
;TYPE:Outer wall
G1 F900
G1 X115.173 Y72.562 E.00411
G1 X115.079 Y72.593 E.00287
G1 X106.422 Y72.593 E.2519
G1 X106.3 Y72.535 E.00392
G1 X106.265 Y72.459 E.00244
G1 X106.265 Y70.151 E.06715
G1 X106.308 Y70.043 E.0034
G1 X106.422 Y69.994 E.0036
G1 X115.079 Y69.994 E.2519
G1 X115.208 Y70.061 E.00422
G1 X115.236 Y70.151 E.00275
G1 X115.236 Y72.396 E.06531
G1 E-3.5 F3600
;WIPE_START
G1 F900
G1 X115.173 Y72.562 E-.26694
G1 X115.079 Y72.593 E-.1477
G1 X114.356 Y72.593 E-1.08536
;WIPE_END
G1 Z.6 F9000
G1 X93.514 Y32.586 Z.6
G1 Z.2
G1 E5 F2400
;TYPE:Inner wall
;WIDTH:0.660062
G1 F900
G1 X93.557 Y32.639 E.00344
;WIDTH:0.617412
G1 X93.6 Y32.693 E.0032
;WIDTH:0.574762
G1 X93.643 Y32.746 E.00297
;WIDTH:0.532111
G1 X95.92 Y38.693 E.25387
;WIDTH:0.488074
G1 X98.198 Y44.641 E.23102
;WIDTH:0.444037
G1 X100.475 Y50.589 E.20817
;WIDTH:0.399999
G1 X100.754 Y50.895 E.01205
G1 X120.726 Y65.017 E.71173
G1 X120.999 Y65.111 E.00841
G1 X148.099 Y70.246 E.80259
G1 X148.099 Y127.48 E1.66535
G1 X145.928 Y129.651 E.08934
G1 X93.402 Y65.272 E2.41765
G1 X93.402 Y51.77 E.39287
;WIDTH:0.444037
G1 X93.424 Y45.439 E.20693
;WIDTH:0.488074
G1 X93.446 Y39.109 E.22964
;WIDTH:0.532111
G1 X93.468 Y32.778 E.25236
;WIDTH:0.574762
G1 X93.483 Y32.714 E.00285
;WIDTH:0.617412
G1 X93.499 Y32.65 E.00308
;WIDTH:0.660062
G1 X93.505 Y32.625 E.00129
G1 X92.604 Y31.517 F9000
;WIDTH:0.399999
G1 F900
G1 X93.63 Y31.517 E.02984
G1 X100.792 Y50.419 E.58817
G1 X100.96 Y50.603 E.00725
G1 X120.856 Y64.672 E.70902
G1 X121.065 Y64.761 E.00662
G1 X148.456 Y69.95 E.81119
G1 X148.456 Y127.628 E1.67826
G1 X145.901 Y130.183 E.10514
M73 P0 R267
M73 P0 R267
G1 X93.045 Y65.399 E2.43285
G1 X93.045 Y32.778 E.94919
G1 X93.01 Y32.588 E.00561
G1 X92.618 Y31.554 E.03217
G1 X92.056 Y31.138 F9000
;TYPE:Outer wall
G1 F900
G1 X93.891 Y31.138 E.05339
G1 X101.122 Y50.222 E.5938
G1 X101.178 Y50.294 E.00267
G1 X121.102 Y64.382 E.71001
G1 X148.306 Y69.536 E.80564
G1 X148.835 Y69.447 E.01562
G1 X148.835 Y127.785 E1.69746
G1 X145.873 Y130.747 E.12189
G1 X92.666 Y65.534 E2.44896
G1 X92.666 Y32.749 E.95395
G1 X92.07 Y31.176 E.04896
G1 X93.299 Y31.996 F9000
;TYPE:Inner wall
;WIDTH:0.660062
G1 F900
G1 X93.514 Y32.586 E.03157
G1 E-3.5 F3600
;WIPE_START
G1 F900
G1 X93.299 Y31.996 E-1.5
;WIPE_END
G1 Z.6 F9000
G1 X147.095 Y70.165
G1 Z.6
G1 Z.2
G1 E5 F2400
;TYPE:Bottom surface
;WIDTH:0.400989
G1 F1200
G1 X147.831 Y70.901 E.03038
G1 X147.831 Y71.408 E.01478
G1 X146.672 Y70.248 E.04784
G1 X146.047 Y70.13 E.01855
G1 X147.831 Y71.914 E.07362
G1 X147.831 Y72.42 E.01478
G1 X145.423 Y70.012 E.0994
G1 X144.798 Y69.893 E.01855
G1 X147.831 Y72.927 E.12518
G1 X147.831 Y73.433 E.01478
G1 X144.173 Y69.775 E.15096
G1 X143.548 Y69.656 E.01855
G1 X147.831 Y73.939 E.17674
G1 X147.831 Y74.446 E.01478
G1 X142.924 Y69.538 E.20252
G1 X142.299 Y69.42 E.01855
G1 X147.831 Y74.952 E.2283
G1 X147.831 Y75.459 E.01478
G1 X141.674 Y69.301 E.25408
G1 X141.049 Y69.183 E.01855
G1 X147.831 Y75.965 E.27986
G1 X147.831 Y76.471 E.01478
G1 X140.425 Y69.065 E.30564
G1 X139.8 Y68.946 E.01855
G1 X147.831 Y76.978 E.33142
G1 X147.831 Y77.484 E.01478
G1 X139.175 Y68.828 E.3572
G1 X138.55 Y68.709 E.01855
G1 X147.831 Y77.991 E.38298
G1 X147.831 Y78.497 E.01478
G1 X137.926 Y68.591 E.40876
G1 X137.301 Y68.473 E.01855
G1 X147.831 Y79.003 E.43454
G1 X147.831 Y79.51 E.01478
G1 X136.676 Y68.354 E.46032
G1 X136.051 Y68.236 E.01855
G1 X147.831 Y80.016 E.4861
G1 X147.831 Y80.522 E.01478
G1 X135.427 Y68.118 E.51188
G1 X134.802 Y67.999 E.01855
G1 X147.831 Y81.029 E.53766
G1 X147.831 Y81.535 E.01478
G1 X134.177 Y67.881 E.56344
G1 X133.552 Y67.762 E.01855
G1 X147.831 Y82.042 E.58922
G1 X147.831 Y82.548 E.01478
G1 X132.927 Y67.644 E.615
G1 X132.303 Y67.526 E.01855
G1 X147.831 Y83.054 E.64078
G1 X147.831 Y83.561 E.01478
G1 X131.678 Y67.407 E.66656
G1 X131.053 Y67.289 E.01855
G1 X147.831 Y84.067 E.69234
G1 X147.831 Y84.574 E.01478
G1 X130.428 Y67.171 E.71812
G1 X129.804 Y67.052 E.01855
G1 X147.831 Y85.08 E.7439
G1 X147.831 Y85.586 E.01478
G1 X129.179 Y66.934 E.76968
G1 X128.554 Y66.815 E.01855
G1 X147.831 Y86.093 E.79546
G1 X147.831 Y86.599 E.01478
G1 X127.929 Y66.697 E.82124
G1 X127.305 Y66.579 E.01855
G1 X147.831 Y87.105 E.84702
G1 X147.831 Y87.612 E.01478
G1 X126.68 Y66.46 E.8728
G1 X126.055 Y66.342 E.01855
G1 X147.831 Y88.118 E.89858
G1 X147.831 Y88.625 E.01478
G1 X125.43 Y66.224 E.92436
G1 X124.806 Y66.105 E.01855
G1 X147.831 Y89.131 E.95014
G1 X147.831 Y89.637 E.01478
M73 P0 R266
M73 P0 R266
G1 X124.181 Y65.987 E.97592
G1 X123.556 Y65.869 E.01855
G1 X147.831 Y90.144 E1.0017
G1 X147.831 Y90.65 E.01478
G1 X122.931 Y65.75 E1.02748
G1 X122.307 Y65.632 E.01855
G1 X147.831 Y91.157 E1.05326
G1 X147.831 Y91.663 E.01478
G1 X121.682 Y65.513 E1.07904
G1 X121.057 Y65.395 E.01855
G1 X147.831 Y92.169 E1.10482
G1 X147.831 Y92.676 E.01478
G1 X119.958 Y64.802 E1.15018
G1 X118.229 Y63.58 E.06178
G1 X147.831 Y93.182 E1.22152
G1 X147.831 Y93.689 E.01478
M73 P1 R266
M73 P1 R266
G1 X116.5 Y62.357 E1.29286
G1 X114.771 Y61.135 E.06178
G1 X147.831 Y94.195 E1.3642
G1 X147.831 Y94.701 E.01478
G1 X113.042 Y59.912 E1.43554
G1 X111.313 Y58.69 E.06178
G1 X147.831 Y95.208 E1.50689
G1 X147.831 Y95.714 E.01478
G1 X109.584 Y57.467 E1.57823
G1 X107.855 Y56.244 E.06178
G1 X115.26 Y63.649 E.30553
G1 X115.526 Y63.703 E.00792
G1 X115.749 Y63.827 E.00745
G1 X115.927 Y63.981 E.00688
G1 X116.168 Y64.368 E.01331
G1 X116.209 Y64.598 E.00682
G1 X147.831 Y96.22 E1.30485
G1 X147.831 Y96.727 E.01478
G1 X116.24 Y65.135 E1.3036
G1 X116.24 Y65.642 E.01478
G1 X147.831 Y97.233 E1.3036
G1 X147.831 Y97.74 E.01478
G1 X116.24 Y66.148 E1.3036
G1 X116.24 Y66.654 E.01478
G1 X147.831 Y98.246 E1.3036
G1 X147.831 Y98.752 E.01478
G1 X116.23 Y67.151 E1.304
G1 X116.212 Y67.315 E.00483
G1 X116.125 Y67.553 E.00737
G1 X147.831 Y99.259 E1.30832
G1 X147.831 Y99.765 E.01478
G1 X115.92 Y67.854 E1.3168
G1 X115.878 Y67.902 E.00187
G1 X115.632 Y68.072 E.00873
G1 X147.831 Y100.272 E1.3287
G1 X147.831 Y100.778 E.01478
G1 X115.239 Y68.186 E1.34488
G1 X115.089 Y68.22 E.00449
G1 X114.767 Y68.22 E.0094
G1 X147.831 Y101.284 E1.36437
G1 X147.831 Y101.791 E.01478
G1 X116.24 Y70.199 E1.3036
G1 X116.24 Y70.705 E.01478
G1 X147.831 Y102.297 E1.3036
G1 X147.831 Y102.803 E.01478
G1 X116.24 Y71.212 E1.3036
G1 X116.24 Y71.718 E.01478
M73 P1 R265
M73 P1 R265
G1 X147.831 Y103.31 E1.3036
G1 X147.831 Y103.816 E.01478
G1 X116.24 Y72.225 E1.3036
G1 X116.24 Y72.44 E.00628
G1 X116.207 Y72.698 E.0076
G1 X147.831 Y104.323 E1.30494
G1 X147.831 Y104.829 E.01478
G1 X116.057 Y73.054 E1.31115
G1 X115.994 Y73.151 E.00337
G1 X115.818 Y73.322 E.00715
G1 X147.831 Y105.335 E1.32099
G1 X147.831 Y105.842 E.01478
G1 X115.503 Y73.513 E1.334
G1 X115.192 Y73.591 E.00937
G1 X115.074 Y73.591 E.00341
G1 X147.831 Y106.348 E1.35168
G1 X147.831 Y106.855 E.01478
G1 X114.568 Y73.592 E1.37257
G1 X114.062 Y73.592 E.01477
G1 X147.831 Y107.361 E1.39345
G1 X147.831 Y107.867 E.01478
G1 X113.556 Y73.592 E1.41434
G1 X113.05 Y73.592 E.01477
G1 X147.831 Y108.374 E1.43522
G1 X147.831 Y108.88 E.01478
G1 X112.544 Y73.593 E1.4561
G1 X112.038 Y73.593 E.01477
G1 X147.831 Y109.386 E1.47699
G1 X147.831 Y109.893 E.01478
G1 X111.532 Y73.593 E1.49787
G1 X111.026 Y73.593 E.01477
G1 X147.831 Y110.399 E1.51875
G1 X147.831 Y110.906 E.01478
G1 X110.52 Y73.594 E1.53964
G1 X110.013 Y73.594 E.01477
G1 X147.831 Y111.412 E1.56052
G1 X147.831 Y111.918 E.01478
G1 X109.507 Y73.594 E1.58141
G1 X109.001 Y73.595 E.01477
G1 X147.831 Y112.425 E1.60229
G1 X147.831 Y112.931 E.01478
G1 X108.495 Y73.595 E1.62317
G1 X107.989 Y73.595 E.01477
G1 X147.831 Y113.438 E1.64406
G1 X147.831 Y113.944 E.01478
G1 X107.483 Y73.595 E1.66494
G1 X106.977 Y73.596 E.01477
G1 X147.831 Y114.45 E1.68583
G1 X147.831 Y114.957 E.01478
G1 X106.297 Y73.422 E1.71388
G1 E-3.5 F3600
M73 P1 R264
;WIPE_START
M73 P1 R264
G1 F1200
G1 X107.004 Y74.129 E-1.5
;WIPE_END
G1 Z.6 F9000
G1 X114.1 Y68.059 Z.6
G1 Z.2
G1 E5 F2400
G1 F1200
G1 X115.031 Y68.99 E.03843
G1 X114.525 Y68.99 E.01478
G1 X113.754 Y68.22 E.0318
G1 X113.248 Y68.22 E.01478
G1 X114.018 Y68.99 E.0318
G1 X113.512 Y68.99 E.01478
G1 X112.741 Y68.22 E.0318
G1 X112.235 Y68.22 E.01478
G1 X113.006 Y68.99 E.0318
G1 X112.499 Y68.99 E.01478
G1 X111.729 Y68.22 E.0318
G1 X111.222 Y68.22 E.01478
G1 X111.993 Y68.99 E.0318
G1 X111.486 Y68.99 E.01478
G1 X110.716 Y68.22 E.0318
G1 X110.209 Y68.22 E.01478
G1 X110.98 Y68.99 E.0318
G1 X110.474 Y68.99 E.01478
G1 X109.703 Y68.22 E.0318
G1 X109.197 Y68.22 E.01478
G1 X109.967 Y68.99 E.0318
G1 X109.461 Y68.99 E.01478
G1 X108.69 Y68.22 E.0318
G1 X108.184 Y68.22 E.01478
G1 X108.955 Y68.99 E.0318
G1 X108.448 Y68.99 E.01478
G1 X107.678 Y68.22 E.0318
G1 X107.171 Y68.22 E.01478
G1 X107.942 Y68.99 E.0318
G1 X107.435 Y68.99 E.01478
