; HEADER_BLOCK_START
; generated by OrcaSlicer 2.3.0 on 2025-04-09 at 13:18:46
; total layer number: 43
;_GP_TOTAL_LAYER_NUMBER_PLACEHOLDER
; filament_density: 1.24
; filament_diameter: 1.75
; max_z_height: 10.28
; HEADER_BLOCK_END

; THUMBNAIL_BLOCK_START

;
; THUMBNAIL_BLOCK_END

; THUMBNAIL_BLOCK_START

;
; THUMBNAIL_BLOCK_END

; external perimeters extrusion width = 0.50mm
; perimeters extrusion width = 0.40mm
; infill extrusion width = 0.40mm
; solid infill extrusion width = 0.50mm
; top infill extrusion width = 0.50mm
; first layer extrusion width = 0.40mm

; external perimeters extrusion width = 0.50mm
; perimeters extrusion width = 0.40mm
; infill extrusion width = 0.40mm
; solid infill extrusion width = 0.50mm
; top infill extrusion width = 0.50mm
; first layer extrusion width = 0.40mm

; external perimeters extrusion width = 0.50mm
; perimeters extrusion width = 0.40mm
; infill extrusion width = 0.40mm
; solid infill extrusion width = 0.50mm
; top infill extrusion width = 0.50mm
; first layer extrusion width = 0.40mm

; external perimeters extrusion width = 0.50mm
; perimeters extrusion width = 0.40mm
; infill extrusion width = 0.40mm
; solid infill extrusion width = 0.50mm
; top infill extrusion width = 0.50mm
; first layer extrusion width = 0.40mm

; EXECUTABLE_BLOCK_START
M73 P0 R238
M201 X500 Y500 Z500 E5000
M203 X500 Y500 Z10 E60
M204 P500 R1000 T500
M205 X8.00 Y8.00 Z0.40 E5.00 ; sets the jerk limits, mm/sec
;TYPE:Custom
G90 ; use absolute coordinates
M83 ; extruder relative mode
M140 S60 ; set final bed temp
M104 S150 ; set temporary nozzle temp to prevent oozing during homing
G4 S10 ; allow partial nozzle warmup
G28 ; home all axis
G1 Z50 F240
G1 X2 Y10 F3000
M104 S220 ; set final nozzle temp
M190 S60 ; wait for bed temp to stabilize
M109 S220 ; wait for nozzle temp to stabilize
G1 Z0.28 F240
G92 E0
G1 Y140 E10 F1500 ; prime the nozzle
G1 X2.3 F5000
G92 E0
G1 Y10 E10 F1200 ; prime the nozzle
G92 E0
G90
G21
M83 ; use relative distances for extrusion
; filament start gcode
M106 S0
;LAYER_CHANGE
;Z:0.2
;HEIGHT:0.2
;BEFORE_LAYER_CHANGE
;0.2
G92 E0

G1 E-5 F3600
;_SET_FAN_SPEED_CHANGING_LAYER
M204 S500
G1 Z.6 F9000
G1 X36.026 Y17.809
G1 Z.6
G1 Z.2
G1 E5 F2400
;TYPE:Skirt
;WIDTH:0.4
G1 F3000
G1 X36.601 Y11.336 E.1891
G1 X36.911 Y10.393 E.02889
G1 X37.954 Y8.686 E.0582
G1 X38.936 Y7.827 E.03797
G1 X39.81 Y7.643 E.02599
G1 X126.6 Y7.529 E2.52537
G1 X154.586 Y8.397 E.81473
G1 X156.106 Y9.083 E.04852
G1 X157.075 Y10.114 E.04115
G1 X157.375 Y10.519 E.01468
G1 X208.601 Y99.503 E2.9876
G1 X209.135 Y100.74 E.03921
G1 X209.501 Y102.071 E.04016
G1 X209.685 Y103.751 E.04918
G1 X209.649 Y104.821 E.03114
G1 X209.428 Y106.183 E.04016
G1 X208.898 Y107.788 E.04918
G1 X144.785 Y224.633 E3.87806
G1 X143.674 Y226.432 E.06152
G1 X142.686 Y227.284 E.03797
G1 X141.823 Y227.463 E.02566
G1 X56.475 Y227.477 E2.48339
G1 X28.43 Y226.785 E.8163
G1 X26.905 Y226.11 E.04852
G1 X25.93 Y225.085 E.04115
G1 X25.331 Y223.529 E.04852
G1 X28.241 Y105.565 E3.4335
G1 X36.023 Y17.849 E2.56235
; printing object lapdock.stl_4 id:8674456325 copy 0
G1 E-3.8 F3600
;WIPE_START
G1 F3000
G1 X36.111 Y16.853 E-1.2
;WIPE_END
G1 Z.6 F9000
G1 X112.85 Y176.356 Z.6
G1 Z.2
G1 E5 F2400
;TYPE:Inner wall
;WIDTH:0.399999
G1 F900
G1 X112.286 Y175.792 E.02323
G1 X112.286 Y158.749 E.4959
G1 X112.85 Y158.185 E.0232
G1 X115.898 Y158.19 E.08871
G1 X116.457 Y158.749 E.02301
G1 X116.457 Y175.792 E.4959
G1 X115.893 Y176.356 E.02323
M73 P0 R237
G1 X112.89 Y176.356 E.08737
G1 X112.682 Y176.693 F9000
G1 F900
G1 X111.929 Y175.94 E.03098
G1 X111.929 Y158.601 E.50451
G1 X112.702 Y157.828 E.03182
G1 X116.046 Y157.833 E.09732
G1 X116.814 Y158.601 E.03161
G1 X116.814 Y175.94 E.50451
G1 X116.041 Y176.714 E.03184
G1 X112.713 Y176.714 E.09683
G1 X112.429 Y176.945 F9000
;TYPE:Outer wall
G1 F900
G1 X111.571 Y176.088 E.03529
G1 X111.571 Y158.453 E.51311
G1 X112.554 Y157.471 E.04044
G1 X116.194 Y157.476 E.10592
G1 X117.171 Y158.453 E.0402
G1 X117.171 Y176.088 E.51311
G1 X116.189 Y177.071 E.04044
G1 X112.554 Y177.071 E.10575
G1 X112.457 Y176.974 E.00399
G1 E-3.5 F3600
;WIPE_START
G1 F900
G1 X111.75 Y176.266 E-1.5
;WIPE_END
G1 Z.6 F9000
G1 X116.35 Y159.024
G1 Z.6
G1 Z.2
G1 E5 F2400
;TYPE:Bottom surface
;WIDTH:0.404439
G1 F1200
G1 X115.784 Y158.458 E.02359
G1 X115.272 Y158.457 E.01509
G1 X116.189 Y159.375 E.03823
G1 X116.189 Y159.886 E.01506
G1 X114.76 Y158.456 E.05957
G1 X114.248 Y158.455 E.01509
G1 X116.189 Y160.397 E.0809
G1 X116.189 Y160.908 E.01506
G1 X113.736 Y158.455 E.10223
G1 X113.224 Y158.454 E.01509
G1 X116.189 Y161.42 E.12357
G1 X116.189 Y161.931 E.01506
G1 X112.836 Y158.578 E.13971
G1 X112.58 Y158.833 E.01065
G1 X116.189 Y162.442 E.15036
G1 X116.189 Y162.954 E.01506
G1 X112.553 Y159.317 E.15148
G1 X112.553 Y159.829 E.01506
G1 X116.189 Y163.465 E.15148
G1 X116.189 Y163.976 E.01506
G1 X112.553 Y160.34 E.15148
G1 X112.553 Y160.851 E.01506
G1 X116.189 Y164.487 E.15148
G1 X116.189 Y164.999 E.01506
G1 X112.553 Y161.363 E.15148
G1 X112.553 Y161.874 E.01506
G1 X116.189 Y165.51 E.15148
G1 X116.189 Y166.021 E.01506
G1 X112.553 Y162.385 E.15148
G1 X112.553 Y162.896 E.01506
G1 X116.189 Y166.532 E.15148
G1 X116.189 Y167.044 E.01506
G1 X112.553 Y163.408 E.15148
G1 X112.553 Y163.919 E.01506
G1 X116.189 Y167.555 E.15148
G1 X116.189 Y168.066 E.01506
G1 X112.553 Y164.43 E.15148
G1 X112.553 Y164.941 E.01506
G1 X116.189 Y168.577 E.15148
G1 X116.189 Y169.089 E.01506
G1 X112.553 Y165.453 E.15148
G1 X112.553 Y165.964 E.01506
G1 X116.189 Y169.6 E.15148
G1 X116.189 Y170.111 E.01506
G1 X112.553 Y166.475 E.15148
G1 X112.553 Y166.986 E.01506
G1 X116.189 Y170.622 E.15148
G1 X116.189 Y171.134 E.01506
G1 X112.553 Y167.498 E.15148
G1 X112.553 Y168.009 E.01506
G1 X116.189 Y171.645 E.15148
G1 X116.189 Y172.156 E.01506
G1 X112.553 Y168.52 E.15148
G1 X112.553 Y169.031 E.01506
G1 X116.189 Y172.668 E.15148
G1 X116.189 Y173.179 E.01506
G1 X112.553 Y169.543 E.15148
G1 X112.553 Y170.054 E.01506
G1 X116.189 Y173.69 E.15148
G1 X116.189 Y174.201 E.01506
G1 X112.553 Y170.565 E.15148
G1 X112.553 Y171.077 E.01506
G1 X116.189 Y174.713 E.15148
G1 X116.189 Y175.224 E.01506
G1 X112.553 Y171.588 E.15148
G1 X112.553 Y172.099 E.01506
G1 X116.162 Y175.708 E.15036
G1 X115.907 Y175.964 E.01065
G1 X112.553 Y172.61 E.13971
G1 X112.553 Y173.122 E.01506
G1 X115.52 Y176.089 E.12361
G1 X115.009 Y176.089 E.01506
G1 X112.553 Y173.633 E.10231
G1 X112.553 Y174.144 E.01506
G1 X114.498 Y176.089 E.08101
G1 X113.987 Y176.089 E.01506
G1 X112.553 Y174.655 E.05971
G1 X112.553 Y175.167 E.01506
G1 X113.475 Y176.089 E.03841
G1 X112.964 Y176.089 E.01506
G1 X112.393 Y175.517 E.02381
; stop printing object lapdock.stl_4 id:8674456325 copy 0
; printing object lapdock.stl_3 id:8674456325 copy 0
G1 E-3.5 F3600
;WIPE_START
G1 F1200
G1 X112.964 Y176.089 E-1.2121
G1 X113.156 Y176.089 E-.2879
;WIPE_END
G1 Z.6 F9000
G1 X44.529 Y223.807 Z.6
G1 Z.2
G1 E5 F2400
;TYPE:Inner wall
;WIDTH:0.349979
G1 F900
G1 X44.522 Y224.114 E.00768
G1 X28.874 Y223.728 E.39166
G1 X28.574 Y223.413 E.01087
G1 X44.489 Y223.806 E.39834
G1 X44.869 Y223.483 F9000
;WIDTH:0.399999
G1 F900
G1 X44.845 Y224.454 E.02826
G1 X28.728 Y224.056 E.46912
G1 X28.071 Y223.366 E.02772
G1 X28.078 Y223.069 E.00866
G1 X44.829 Y223.482 E.48756
G1 X45.235 Y223.135 F9000
;TYPE:Outer wall
G1 F900
G1 X45.194 Y224.82 E.04904
G1 X28.571 Y224.41 E.48382
G1 X27.71 Y223.505 E.03633
G1 X27.73 Y222.703 E.02335
G1 X45.195 Y223.134 E.50834
G1 E-3.5 F3600
;WIPE_START
G1 F900
G1 X45.194 Y224.134 E-1.5
;WIPE_END
G1 Z.6 F9000
G1 X60.011 Y122.995 Z.6
G1 Z.2
G1 E5 F2400
;TYPE:Inner wall
G1 F900
G1 X59.816 Y122.986 E.00568
G1 X59.503 Y123.099 E.00969
G1 X59.203 Y123.389 E.01215
G1 X59.104 Y123.603 E.00688
G1 X59.064 Y123.846 E.00714
G1 X56.595 Y223.922 E2.91285
G1 X56.119 Y224.375 E.01911
G1 X52.502 Y224.286 E.10526
G1 X55.417 Y106.15 E3.43849
G1 X59.034 Y106.239 E.10526
G1 X59.487 Y106.715 E.01911
G1 X59.457 Y107.903 E.03458
G1 X59.514 Y108.238 E.0099
G1 X59.736 Y108.573 E.0117
G1 X60.019 Y108.754 E.00978
G1 X109.503 Y128.46 E1.54982
G1 X110.379 Y128.883 E.02829
G1 X111.157 Y129.408 E.02733
G1 X111.854 Y130.039 E.02733
G1 X112.453 Y130.762 E.02733
G1 X112.943 Y131.563 E.02733
G1 X113.315 Y132.426 E.02733
G1 X113.559 Y133.333 E.02733
G1 X113.673 Y134.265 E.02733
G1 X113.652 Y135.204 E.02733
G1 X113.498 Y136.131 E.02733
G1 X113.214 Y137.025 E.02731
G1 X112.798 Y137.882 E.02772
G1 X112.28 Y138.651 E.02697
G1 X111.649 Y139.347 E.02733
G1 X110.926 Y139.946 E.02733
G1 X110.125 Y140.437 E.02733
G1 X109.262 Y140.808 E.02733
G1 X108.355 Y141.053 E.02733
G1 X107.423 Y141.166 E.02733
G1 X106.483 Y141.145 E.02733
G1 X105.557 Y140.991 E.02733
G1 X104.412 Y140.61 E.03511
G1 X60.197 Y123.003 E1.38478
G1 X60.051 Y122.996 E.00425
G1 X60.008 Y123.342 F9000
G1 F900
G1 X59.954 Y123.332 E.00159
G1 X59.684 Y123.406 E.00814
G1 X59.504 Y123.58 E.00729
G1 X59.421 Y123.855 E.00834
G1 X56.948 Y224.079 E2.91715
G1 X56.258 Y224.736 E.02772
G1 X52.137 Y224.634 E.11995
G1 X55.069 Y105.784 E3.45927
G1 X59.19 Y105.886 E.11995
M73 P0 R236
G1 X59.847 Y106.576 E.02772
G1 X59.814 Y107.912 E.03888
G1 X59.848 Y108.113 E.00594
G1 X59.982 Y108.314 E.00702
G1 X60.151 Y108.423 E.00587
G1 X109.647 Y128.133 E1.55019
G1 X110.557 Y128.573 E.0294
G1 X111.378 Y129.126 E.02882
G1 X112.112 Y129.791 E.02882
G1 X112.744 Y130.554 E.02882
G1 X113.261 Y131.398 E.02882
G1 X113.653 Y132.308 E.02882
G1 X113.911 Y133.264 E.02882
G1 X114.03 Y134.247 E.02882
G1 X114.008 Y135.238 E.02882
G1 X113.846 Y136.215 E.02882
G1 X113.546 Y137.158 E.0288
G1 X113.108 Y138.061 E.0292
G1 X112.561 Y138.871 E.02844
G1 X111.897 Y139.605 E.02882
G1 X111.134 Y140.237 E.02882
G1 X110.289 Y140.754 E.02882
G1 X109.38 Y141.146 E.02882
G1 X108.423 Y141.404 E.02882
G1 X107.44 Y141.523 E.02882
G1 X106.45 Y141.502 E.02882
G1 X105.473 Y141.339 E.02882
G1 X104.51 Y141.033 E.0294
G1 X60.154 Y123.37 E1.3892
G1 X60.047 Y123.35 E.00318
G1 X59.988 Y123.688 F9000
;TYPE:Outer wall
G1 F900
G1 X59.834 Y123.738 E.00471
G1 X59.778 Y123.863 E.00399
G1 X57.301 Y224.235 E2.92146
G1 X56.397 Y225.096 E.03633
G1 X51.771 Y224.982 E.13465
G1 X54.721 Y105.418 E3.48005
G1 X59.347 Y105.533 E.13465
M73 P1 R236
G1 X60.208 Y106.437 E.03633
G1 X60.182 Y107.988 E.04513
G1 X60.284 Y108.091 E.0042
G1 X109.791 Y127.806 E1.55056
G1 X110.735 Y128.262 E.03051
G1 X111.599 Y128.844 E.0303
G1 X112.371 Y129.544 E.0303
G1 X113.035 Y130.345 E.0303
G1 X113.579 Y131.234 E.0303
G1 X113.991 Y132.19 E.0303
G1 X114.262 Y133.196 E.0303
G1 X114.388 Y134.23 E.0303
G1 X114.365 Y135.271 E.0303
G1 X114.194 Y136.298 E.03031
G1 X113.879 Y137.291 E.0303
G1 X113.418 Y138.24 E.03069
G1 X112.843 Y139.092 E.02992
G1 X112.144 Y139.864 E.0303
G1 X111.342 Y140.529 E.0303
G1 X110.454 Y141.072 E.0303
G1 X109.497 Y141.484 E.0303
G1 X108.492 Y141.755 E.0303
G1 X107.458 Y141.881 E.0303
G1 X106.417 Y141.858 E.0303
G1 X105.389 Y141.687 E.03031
G1 X104.148 Y141.273 E.03808
G1 X60.025 Y123.703 E1.38191
G1 E-3.5 F3600
;WIPE_START
G1 F900
G1 X59.834 Y123.738 E-.29135
G1 X59.778 Y123.863 E-.2059
G1 X59.761 Y124.532 E-1.00275
;WIPE_END
G1 Z.6 F9000
G1 X113.079 Y132.15 Z.6
G1 Z.2
G1 E5 F2400
;TYPE:Bottom surface
;WIDTH:0.400658
G1 F1200
G1 X109.859 Y128.929 E.13278
G1 X109.395 Y128.705 E.01499
G1 X108.952 Y128.529 E.01391
G1 X113.107 Y132.683 E.17128
G1 X113.294 Y133.376 E.02092
G1 X108.111 Y128.194 E.21365
G1 X107.271 Y127.859 E.02638
G1 X113.365 Y133.953 E.25124
G1 X113.405 Y134.278 E.00955
G1 X113.4 Y134.494 E.00628
G1 X106.43 Y127.524 E.28733
G1 X105.589 Y127.189 E.02638
G1 X113.389 Y134.989 E.32154
G1 X113.385 Y135.179 E.00555
G1 X113.34 Y135.446 E.00789
G1 X104.749 Y126.855 E.3542
G1 X103.908 Y126.52 E.02638
G1 X113.268 Y135.88 E.38588
G1 X113.237 Y136.068 E.00555
G1 X113.168 Y136.286 E.00666
G1 X103.067 Y126.185 E.4164
G1 X102.227 Y125.85 E.02638
G1 X113.046 Y136.67 E.44603
G1 X112.964 Y136.926 E.00784
G1 X112.909 Y137.039 E.00367
G1 X101.386 Y125.515 E.47507
G1 X100.545 Y125.181 E.02638
G1 X112.744 Y137.38 E.50291
G1 X112.579 Y137.72 E.01104
G1 X99.704 Y124.846 E.53075
G1 X98.864 Y124.511 E.02638
G1 X112.378 Y138.025 E.55714
G1 X112.174 Y138.328 E.01062
G1 X98.023 Y124.176 E.5834
G1 X97.182 Y123.842 E.02638
G1 X111.953 Y138.612 E.60893
G1 X111.713 Y138.878 E.01044
G1 X96.342 Y123.507 E.63368
G1 X95.501 Y123.172 E.02638
G1 X111.472 Y139.143 E.65843
G1 X111.197 Y139.374 E.01047
G1 X94.66 Y122.837 E.68173
G1 X93.82 Y122.502 E.02638
G1 X110.92 Y139.603 E.70499
G1 X110.77 Y139.728 E.0057
G1 X110.627 Y139.815 E.00489
G1 X92.979 Y122.168 E.72754
G1 X92.138 Y121.833 E.02638
G1 X110.313 Y140.007 E.74926
G1 X109.999 Y140.199 E.01073
G1 X91.297 Y121.498 E.77097
G1 X90.457 Y121.163 E.02638
M73 P1 R235
G1 X109.645 Y140.351 E.79105
G1 X109.291 Y140.504 E.01122
G1 X89.616 Y120.829 E.81113
G1 X88.775 Y120.494 E.02638
G1 X108.908 Y140.626 E.82997
G1 X108.509 Y140.734 E.01203
G1 X87.935 Y120.159 E.84821
G1 X87.094 Y119.824 E.02638
G1 X108.085 Y140.816 E.86539
G1 X107.634 Y140.87 E.01325
G1 X86.253 Y119.489 E.88145
G1 X85.413 Y119.155 E.02638
G1 X107.15 Y140.892 E.89614
G1 X106.633 Y140.881 E.01508
G1 X84.572 Y118.82 E.90948
G1 X83.731 Y118.485 E.02638
G1 X106.047 Y140.801 E.92001
G1 X105.62 Y140.73 E.01264
G1 X105.401 Y140.661 E.00669
G1 X82.89 Y118.15 E.92801
G1 X82.05 Y117.816 E.02638
G1 X104.651 Y140.417 E.93176
G1 X103.811 Y140.082 E.02638
G1 X81.209 Y117.481 E.93176
G1 X80.368 Y117.146 E.02638
G1 X102.97 Y139.747 E.93176
G1 X102.129 Y139.413 E.02638
G1 X79.528 Y116.811 E.93176
G1 X78.687 Y116.476 E.02638
G1 X101.288 Y139.078 E.93176
G1 X100.448 Y138.743 E.02638
G1 X77.846 Y116.142 E.93176
G1 X77.006 Y115.807 E.02638
G1 X99.607 Y138.408 E.93176
G1 X98.766 Y138.073 E.02638
G1 X76.165 Y115.472 E.93176
G1 X75.324 Y115.137 E.02638
G1 X97.926 Y137.739 E.93176
G1 X97.085 Y137.404 E.02638
G1 X74.483 Y114.802 E.93176
G1 X73.643 Y114.468 E.02638
G1 X96.244 Y137.069 E.93176
G1 X95.404 Y136.734 E.02638
G1 X72.802 Y114.133 E.93176
G1 X71.961 Y113.798 E.02638
G1 X94.563 Y136.4 E.93176
G1 X93.722 Y136.065 E.02638
G1 X71.121 Y113.463 E.93176
G1 X70.28 Y113.129 E.02638
G1 X92.881 Y135.73 E.93176
G1 X92.041 Y135.395 E.02638
G1 X69.439 Y112.794 E.93176
G1 X68.599 Y112.459 E.02638
G1 X91.2 Y135.06 E.93176
G1 X90.359 Y134.726 E.02638
G1 X67.758 Y112.124 E.93176
G1 X66.917 Y111.789 E.02638
G1 X89.519 Y134.391 E.93176
G1 X88.678 Y134.056 E.02638
G1 X66.076 Y111.455 E.93176
G1 X65.236 Y111.12 E.02638
G1 X87.837 Y133.721 E.93176
G1 X86.997 Y133.387 E.02638
G1 X64.395 Y110.785 E.93176
G1 X63.554 Y110.45 E.02638
G1 X86.156 Y133.052 E.93176
G1 X85.315 Y132.717 E.02638
G1 X62.714 Y110.116 E.93176
G1 X61.873 Y109.781 E.02638
G1 X84.474 Y132.382 E.93176
G1 X83.634 Y132.047 E.02638
G1 X60.745 Y109.159 E.94361
G1 E-3.5 F3600
;WIPE_START
G1 F1200
G1 X61.452 Y109.866 E-1.5
;WIPE_END
G1 Z.6 F9000
G1 X59.366 Y107.273 Z.6
G1 Z.2
G1 E5 F2400
G1 F1200
G1 X58.588 Y106.496 E.03204
G1 X58.07 Y106.483 E.01513
M73 P1 R234
G1 X59.353 Y107.767 E.05292
G1 E-3.5 F3600
;WIPE_START
G1 F1200
G1 X58.646 Y107.06 E-1.5
;WIPE_END
G1 Z.6 F9000
G1 X57.386 Y106.306 Z.6
G1 Z.2
G1 E5 F2400
G1 F1200
G1 X59.21 Y108.129 E.07518
G1 X59.263 Y108.333 E.00614
G1 X59.387 Y108.575 E.00792
G1 X59.551 Y108.768 E.00739
G1 X59.734 Y108.909 E.00674
G1 X60.192 Y109.111 E.01457
G1 X82.793 Y131.713 E.93176
G1 X81.952 Y131.378 E.02638
G1 X57.032 Y106.458 E1.02735
G1 X56.514 Y106.445 E.01513
G1 X81.112 Y131.043 E1.01408
G1 X80.271 Y130.708 E.02638
G1 X55.995 Y106.432 E1.0008
G1 X55.678 Y106.424 E.00923
G1 X55.674 Y106.617 E.00561
G1 X79.43 Y130.373 E.97939
G1 X78.59 Y130.039 E.02638
G1 X55.661 Y107.111 E.94523
G1 X55.649 Y107.604 E.0144
G1 X77.749 Y129.704 E.91108
G1 X76.908 Y129.369 E.02638
G1 X55.637 Y108.098 E.87692
G1 X55.625 Y108.592 E.0144
G1 X76.067 Y129.034 E.84277
G1 X75.227 Y128.7 E.02638
G1 X55.613 Y109.085 E.80861
G1 X55.6 Y109.579 E.0144
G1 X74.386 Y128.365 E.77445
G1 X73.545 Y128.03 E.02638
G1 X55.588 Y110.073 E.7403
G1 X55.576 Y110.567 E.0144
G1 X72.705 Y127.695 E.70614
G1 X71.864 Y127.36 E.02638
G1 X55.564 Y111.06 E.67198
G1 X55.552 Y111.554 E.0144
G1 X71.023 Y127.026 E.63783
G1 X70.183 Y126.691 E.02638
G1 X55.54 Y112.048 E.60367
