; HEADER_BLOCK_START
; generated by OrcaSlicer 2.3.0 on 2025-04-11 at 11:24:41
; total layer number: 50
;_GP_TOTAL_LAYER_NUMBER_PLACEHOLDER
; filament_density: 1.24
; filament_diameter: 1.75
; max_z_height: 10.00
; HEADER_BLOCK_END

; THUMBNAIL_BLOCK_START

;
; THUMBNAIL_BLOCK_END

; THUMBNAIL_BLOCK_START

;
; THUMBNAIL_BLOCK_END

; external perimeters extrusion width = 0.40mm
; perimeters extrusion width = 0.45mm
; infill extrusion width = 0.45mm
; solid infill extrusion width = 0.40mm
; top infill extrusion width = 0.40mm
; first layer extrusion width = 0.50mm

; external perimeters extrusion width = 0.40mm
; perimeters extrusion width = 0.45mm
; infill extrusion width = 0.45mm
; solid infill extrusion width = 0.40mm
; top infill extrusion width = 0.40mm
; first layer extrusion width = 0.50mm

; EXECUTABLE_BLOCK_START
M73 P0 R126
M201 X500 Y500 Z500 E5000
M203 X500 Y500 Z10 E60
M204 P500 R1000 T500
M205 X8.00 Y8.00 Z0.40 E5.00 ; sets the jerk limits, mm/sec
;TYPE:Custom
G90 ; use absolute coordinates
M83 ; extruder relative mode
M140 S60 ; set final bed temp
M104 S150 ; set temporary nozzle temp to prevent oozing during homing
G4 S10 ; allow partial nozzle warmup
G28 ; home all axis
G1 Z50 F240
G1 X2 Y10 F3000
M73 P0 R125
M104 S220 ; set final nozzle temp
M190 S60 ; wait for bed temp to stabilize
M109 S220 ; wait for nozzle temp to stabilize
G1 Z0.28 F240
G92 E0
G1 Y140 E10 F1500 ; prime the nozzle
G1 X2.3 F5000
G92 E0
G1 Y10 E10 F1200 ; prime the nozzle
G92 E0
G90
G21
M83 ; use relative distances for extrusion
; filament start gcode
M106 S0
;LAYER_CHANGE
;Z:0.2
;HEIGHT:0.2
;BEFORE_LAYER_CHANGE
;0.2
G92 E0

G1 E-5 F3600
;_SET_FAN_SPEED_CHANGING_LAYER
M204 S500
G1 Z.6 F9000
G1 X63.146 Y68.867
G1 Z.6
G1 Z.2
G1 E5 F2400
;TYPE:Skirt
;WIDTH:0.5
G1 F3000
G1 X64.275 Y68.625 E.043
G1 X65.579 Y68.536 E.04866
G1 X165.222 Y68.544 E3.71135
G1 X167.168 Y68.714 E.07275
G1 X169.378 Y69.201 E.0843
G1 X171.5 Y69.991 E.0843
G1 X173.49 Y71.068 E.0843
G1 X175.311 Y72.413 E.0843
G1 X176.927 Y73.997 E.0843
G1 X178.308 Y75.791 E.0843
G1 X179.425 Y77.76 E.0843
G1 X180.257 Y79.865 E.0843
G1 X180.788 Y82.065 E.0843
G1 X181.016 Y84.509 E.09142
G1 X181.075 Y118.868 E1.27976
G1 X181.03 Y119.728 E.03209
G1 X180.829 Y120.883 E.04365
G1 X180.388 Y122.198 E.05165
G1 X161.103 Y164.48 E1.73092
G1 X160.224 Y165.465 E.04917
G1 X159.095 Y165.783 E.0437
G1 X81.403 Y166.462 E2.89385
G1 X77.688 Y166.378 E.13841
G1 X74.078 Y165.785 E.13627
G1 X70.585 Y164.696 E.13627
G1 X67.55 Y163.282 E.12471
G1 X64.221 Y161.122 E.14782
G1 X61.693 Y158.926 E.12471
G1 X59.275 Y156.18 E.13627
G1 X57.263 Y153.125 E.13627
G1 X55.585 Y149.528 E.14782
G1 X54.605 Y146.327 E.12471
G1 X54.01 Y142.717 E.13627
G1 X53.923 Y139.059 E.13627
G1 X57.095 Y76.341 E2.33903
G1 X57.204 Y75.469 E.03272
G1 X57.481 Y74.354 E.04278
G1 X58.059 Y72.99 E.05519
G1 X58.681 Y71.997 E.04365
G1 X59.42 Y71.117 E.04278
G1 X60.06 Y70.516 E.03272
G1 X61.012 Y69.821 E.04387
G1 X62.332 Y69.148 E.05519
G1 X63.109 Y68.88 E.0306
; printing object lapdock.stl_2 id:0 copy 0
G1 E-3.8 F3600
;WIPE_START
G1 F3000
G1 X64.086 Y68.667 E-1.2
;WIPE_END
G1 Z.6 F9000
G1 X177.678 Y114.757 Z.6
G1 Z.2
G1 E5 F2400
;TYPE:Inner wall
;WIDTH:0.499999
G1 F900
G1 X177.199 Y114.223 E.02674
G1 X176.509 Y113.639 E.03367
G1 X175.745 Y113.156 E.03367
G1 X174.921 Y112.784 E.03367
G1 X174.053 Y112.531 E.03367
G1 X173.159 Y112.401 E.03367
G1 X172.255 Y112.397 E.03367
G1 X171.359 Y112.518 E.03367
G1 X170.489 Y112.763 E.03367
G1 X169.661 Y113.127 E.03367
G1 X168.892 Y113.602 E.03367
G1 X168.197 Y114.18 E.03367
G1 X167.589 Y114.849 E.03367
G1 X167.08 Y115.596 E.03367
G1 X166.68 Y116.406 E.03367
G1 X166.38 Y117.351 E.03691
G1 X160.893 Y106.062 E.4675
G1 X160.615 Y105.739 E.01587
G1 X160.309 Y105.563 E.01313
G1 X159.919 Y105.487 E.0148
G1 X159.533 Y105.547 E.01456
G1 X159.181 Y105.741 E.01495
G1 X93.223 Y158.965 E3.15678
G1 X90.492 Y160.607 E.11869
G1 X87.56 Y161.853 E.11865
G1 X84.484 Y162.679 E.11865
G1 X81.322 Y163.068 E.11865
G1 X78.137 Y163.014 E.11865
G1 X74.99 Y162.517 E.11865
G1 X71.944 Y161.586 E.11865
G1 X69.056 Y160.241 E.11865
G1 X66.384 Y158.507 E.11865
G1 X63.979 Y156.418 E.11865
G1 X61.888 Y154.015 E.11865
G1 X60.152 Y151.344 E.11865
G1 X58.805 Y148.457 E.11865
G1 X57.873 Y145.411 E.11865
G1 X57.373 Y142.265 E.11865
G1 X57.316 Y139.039 E.1202
G1 X60.262 Y80.771 E2.17301
G1 X60.637 Y81.251 E.02268
G1 X61.285 Y81.882 E.03367
G1 X62.013 Y82.416 E.03367
G1 X62.81 Y82.845 E.03367
G1 X63.657 Y83.158 E.03367
G1 X64.541 Y83.35 E.03367
G1 X65.442 Y83.417 E.03367
G1 X66.344 Y83.359 E.03367
G1 X67.229 Y83.175 E.03367
G1 X68.08 Y82.87 E.03367
G1 X68.88 Y82.449 E.03367
G1 X69.614 Y81.921 E.03367
G1 X70.267 Y81.297 E.03367
G1 X70.827 Y80.587 E.03367
G1 X71.283 Y79.806 E.03367
G1 X71.626 Y78.97 E.03367
G1 X71.84 Y78.136 E.03206
G1 X88.757 Y108.777 E1.30362
G1 X88.907 Y108.988 E.00964
G1 X89.192 Y109.218 E.01366
G1 X89.546 Y109.348 E.01403
G1 X89.928 Y109.355 E.01423
G1 X90.286 Y109.237 E.01404
G1 X158.109 Y73.799 E2.85019
G1 X159.771 Y72.951 E.06951
G1 X161.464 Y72.368 E.06668
G1 X163.221 Y72.025 E.06668
G1 X165.009 Y71.931 E.06669
G1 X166.755 Y72.083 E.06529
G1 X168.539 Y72.489 E.06813
G1 X170.209 Y73.129 E.06662
G1 X171.775 Y73.997 E.06668
M73 P0 R124
G1 X173.205 Y75.074 E.06668
G1 X174.472 Y76.339 E.06668
G1 X175.55 Y77.769 E.06668
G1 X176.418 Y79.334 E.06669
G1 X177.061 Y81.006 E.06668
G1 X177.464 Y82.75 E.06669
G1 X177.623 Y84.565 E.06785
G1 X177.678 Y114.717 E1.12307
G1 X178.138 Y116.353 F9000
G1 F900
G1 X177.919 Y115.899 E.01878
G1 X177.456 Y115.198 E.0313
G1 X176.899 Y114.568 E.0313
G1 X176.26 Y114.022 E.0313
G1 X175.552 Y113.57 E.0313
G1 X174.787 Y113.222 E.0313
G1 X173.982 Y112.983 E.0313
M73 P1 R124
G1 X173.151 Y112.858 E.0313
G1 X172.311 Y112.85 E.0313
G1 X171.477 Y112.96 E.0313
G1 X170.668 Y113.184 E.0313
G1 X169.897 Y113.519 E.0313
G1 X169.18 Y113.957 E.0313
G1 X168.532 Y114.492 E.0313
G1 X167.964 Y115.111 E.0313
G1 X167.487 Y115.803 E.0313
G1 X167.112 Y116.555 E.0313
G1 X166.845 Y117.352 E.0313
G1 X166.692 Y118.178 E.0313
G1 X166.654 Y118.96 E.02916
G1 X160.515 Y106.33 E.52303
G1 X160.328 Y106.096 E.01117
G1 X160.04 Y105.959 E.01188
G1 X159.745 Y105.962 E.01099
G1 X159.468 Y106.096 E.01147
G1 X93.485 Y159.341 E3.15795
G1 X90.7 Y161.016 E.12106
G1 X87.71 Y162.286 E.12103
G1 X84.571 Y163.129 E.12103
G1 X81.346 Y163.526 E.12103
G1 X78.097 Y163.47 E.12103
G1 X74.888 Y162.963 E.12103
G1 X71.78 Y162.014 E.12103
G1 X68.834 Y160.642 E.12103
G1 X66.108 Y158.873 E.12103
G1 X63.655 Y156.742 E.12103
G1 X61.523 Y154.291 E.12103
G1 X59.752 Y151.566 E.12103
G1 X58.377 Y148.622 E.12103
G1 X57.426 Y145.515 E.12103
G1 X56.917 Y142.305 E.12103
G1 X56.858 Y139.031 E.12197
G1 X59.886 Y79.158 E2.23291
G1 X60.036 Y79.529 E.01491
G1 X60.449 Y80.26 E.0313
G1 X60.961 Y80.927 E.0313
G1 X61.56 Y81.517 E.0313
G1 X62.235 Y82.017 E.0313
G1 X62.973 Y82.418 E.0313
G1 X63.76 Y82.712 E.0313
G1 X64.58 Y82.895 E.0313
G1 X65.418 Y82.961 E.0313
G1 X66.257 Y82.91 E.0313
G1 X67.08 Y82.743 E.0313
G1 X67.872 Y82.463 E.0313
G1 X68.618 Y82.075 E.0313
G1 X69.302 Y81.587 E.0313
G1 X69.912 Y81.009 E.0313
G1 X70.435 Y80.352 E.0313
G1 X70.862 Y79.628 E.0313
G1 X71.184 Y78.852 E.0313
G1 X71.395 Y78.038 E.0313
G1 X71.49 Y77.203 E.0313
G1 X71.478 Y76.535 E.02489
G1 X89.213 Y108.659 E1.36671
G1 X89.484 Y108.853 E.01241
G1 X89.788 Y108.91 E.01152
G1 X90.074 Y108.832 E.01105
G1 X157.899 Y73.393 E2.85027
G1 X159.592 Y72.529 E.07078
G1 X161.345 Y71.925 E.06907
G1 X163.165 Y71.571 E.06906
G1 X165.017 Y71.473 E.06907
G1 X166.826 Y71.631 E.06765
G1 X168.672 Y72.051 E.07051
G1 X170.402 Y72.714 E.06903
G1 X172.025 Y73.613 E.06907
G1 X173.506 Y74.728 E.06907
G1 X174.817 Y76.039 E.06906
G1 X175.934 Y77.519 E.06907
G1 X176.834 Y79.141 E.06907
G1 X177.499 Y80.871 E.06906
G1 X177.917 Y82.678 E.06907
G1 X178.08 Y84.544 E.06978
G1 X178.138 Y116.313 E1.18325
G1 E-3.5 F3600
;WIPE_START
G1 F900
G1 X177.919 Y115.899 E-.70265
G1 X177.626 Y115.455 E-.79735
;WIPE_END
G1 Z.6 F9000
G1 X160.085 Y106.491 Z.6
G1 Z.2
G1 E5 F2400
;TYPE:Outer wall
G1 F900
G1 X159.924 Y106.403 E.00684
G1 X159.755 Y106.452 E.00656
G1 X93.748 Y159.716 E3.15912
G1 X90.908 Y161.424 E.12342
G1 X87.859 Y162.72 E.12341
G1 X84.659 Y163.578 E.12341
G1 X81.37 Y163.983 E.12341
G1 X78.057 Y163.927 E.12341
G1 X74.785 Y163.41 E.12341
G1 X71.616 Y162.442 E.12341
G1 X68.612 Y161.043 E.12341
G1 X65.833 Y159.239 E.12341
G1 X63.331 Y157.066 E.12341
G1 X61.157 Y154.567 E.12341
G1 X59.351 Y151.789 E.12341
G1 X57.95 Y148.786 E.12341
G1 X56.98 Y145.618 E.12341
G1 X56.46 Y142.346 E.12341
G1 X56.401 Y139.024 E.12374
G1 X59.456 Y78.614 E2.25292
;WIDTH:0.510043
G1 X59.509 Y77.403 E.04613
;WIDTH:0.483286
G1 X59.516 Y77.002 E.01441
;WIDTH:0.456529
G1 X59.583 Y76.189 E.02749
;WIDTH:0.443267
G1 X59.744 Y75.376 E.02701
G1 X60.017 Y74.594 E.02703
G1 X60.396 Y73.858 E.02703
G1 X60.874 Y73.181 E.02703
G1 X61.442 Y72.579 E.02701
G1 X62.088 Y72.059 E.02704
G1 X62.8 Y71.636 E.02703
G1 X63.564 Y71.315 E.02703
G1 X64.365 Y71.104 E.02703
G1 X65.187 Y71.008 E.02701
G1 X66.016 Y71.025 E.02704
G1 X66.834 Y71.158 E.02703
G1 X67.625 Y71.404 E.02703
G1 X68.375 Y71.758 E.02704
G1 X69.067 Y72.211 E.02701
G1 X69.69 Y72.757 E.02703
G1 X70.231 Y73.385 E.02703
G1 X70.679 Y74.083 E.02704
;WIDTH:0.47182
G1 X71.055 Y74.794 E.02812
;WIDTH:0.499999
G1 X71.403 Y75.453 E.02775
G1 X89.557 Y108.335 E1.399
G1 X89.687 Y108.442 E.00628
G1 X89.863 Y108.427 E.00656
G1 X157.689 Y72.987 E2.85036
G1 X159.413 Y72.108 E.07206
G1 X161.226 Y71.483 E.07145
G1 X163.109 Y71.116 E.07145
G1 X165.025 Y71.015 E.07145
G1 X166.897 Y71.178 E.07
G1 X168.805 Y71.612 E.07289
G1 X170.596 Y72.299 E.07143
G1 X172.274 Y73.228 E.07145
G1 X173.806 Y74.382 E.07145
G1 X175.163 Y75.738 E.07145
G1 X176.318 Y77.269 E.07145
G1 X177.249 Y78.947 E.07145
G1 X177.937 Y80.737 E.07145
G1 X178.369 Y82.606 E.07145
G1 X178.538 Y84.524 E.0717
G1 X178.596 Y116.772 E1.20112
;WIDTH:0.52034
G1 X178.587 Y117.584 E.03159
G1 X178.608 Y118.298 E.02777
;WIDTH:0.488632
G1 X178.628 Y119.011 E.02593
;WIDTH:0.456923
G1 X178.5 Y120.021 E.03433
;WIDTH:0.443266
G1 X178.282 Y120.82 E.02703
G1 X177.955 Y121.581 E.02703
G1 X177.525 Y122.289 E.02703
G1 X177.001 Y122.931 E.02703
G1 X176.393 Y123.492 E.02701
G1 X175.712 Y123.966 E.02704
G1 X174.972 Y124.338 E.02703
G1 X174.188 Y124.604 E.02701
G1 X173.374 Y124.759 E.02704
G1 X172.546 Y124.799 E.02703
G1 X171.721 Y124.723 E.02703
G1 X170.915 Y124.534 E.02703
G1 X170.143 Y124.233 E.02703
G1 X169.421 Y123.828 E.02701
G1 X168.76 Y123.327 E.02704
G1 X168.177 Y122.739 E.02703
G1 X167.681 Y122.075 E.02703
;WIDTH:0.446847
G1 X167.279 Y121.353 E.02719
;WIDTH:0.483475
G1 X166.943 Y120.621 E.02894
;WIDTH:0.499999
G1 X160.103 Y106.527 E.58351
G1 E-3.5 F3600
M73 P1 R123
;WIPE_START
G1 F900
G1 X159.924 Y106.403 E-.32613
G1 X159.755 Y106.452 E-.26401
G1 X159.283 Y106.833 E-.90986
;WIPE_END
G1 Z.6 F9000
G1 X178.152 Y117.976 Z.6
G1 Z.2
G1 E5 F2400
;WIDTH:0.489583
G1 F900
G1 X178.201 Y118.362 E.01416
;WIDTH:0.462262
G1 X178.207 Y119.136 E.02645
;WIDTH:0.443265
G1 X178.115 Y119.903 E.02521
G1 X177.918 Y120.65 E.02521
G1 X177.618 Y121.362 E.02521
G1 X177.222 Y122.026 E.02521
G1 X176.737 Y122.628 E.02521
G1 X176.173 Y123.156 E.02521
G1 X175.542 Y123.601 E.02521
G1 X174.854 Y123.954 E.02521
G1 X174.125 Y124.207 E.02521
G1 X173.367 Y124.357 E.02521
G1 X172.595 Y124.4 E.02521
G1 X171.825 Y124.335 E.02521
G1 X171.072 Y124.163 E.02521
G1 X170.35 Y123.888 E.02521
G1 X169.673 Y123.516 E.02521
G1 X169.054 Y123.053 E.02521
G1 X168.506 Y122.508 E.02521
G1 X168.039 Y121.892 E.02521
;WIDTH:0.446404
G1 X167.662 Y121.218 E.02541
;WIDTH:0.47871
G1 X167.367 Y120.503 E.02745
;WIDTH:0.499999
G1 X167.18 Y119.751 E.02888
G1 X167.11 Y118.977 E.02893
G1 X167.148 Y118.202 E.02893
G1 X167.294 Y117.439 E.02893
G1 X167.544 Y116.704 E.02893
G1 X167.895 Y116.011 E.02893
G1 X168.338 Y115.373 E.02893
G1 X168.866 Y114.803 E.02893
G1 X169.468 Y114.312 E.02893
G1 X170.132 Y113.91 E.02893
G1 X170.846 Y113.605 E.02893
G1 X171.596 Y113.401 E.02893
G1 X172.366 Y113.304 E.02893
G1 X173.143 Y113.315 E.02893
G1 X173.91 Y113.434 E.02893
G1 X174.654 Y113.659 E.02893
G1 X175.359 Y113.985 E.02893
G1 X176.011 Y114.406 E.02893
G1 X176.599 Y114.913 E.02893
G1 X177.111 Y115.498 E.02893
G1 X177.536 Y116.148 E.02893
G1 X177.866 Y116.85 E.02893
;WIDTH:0.516904
G1 X178.104 Y117.59 E.03
G1 X178.147 Y117.936 E.01348
G1 E-3.5 F3600
;WIPE_START
G1 F900
G1 X178.201 Y118.362 E-.64366
G1 X178.206 Y118.933 E-.85634
;WIPE_END
G1 Z.6 F9000
G1 X59.951 Y77.44 Z.6
G1 Z.2
G1 E5 F2400
;WIDTH:0.484225
G1 F900
G1 X59.928 Y77.052 E.01398
;WIDTH:0.458509
G1 X59.974 Y76.279 E.0262
;WIDTH:0.443268
G1 X60.119 Y75.52 E.02521
G1 X60.369 Y74.789 E.02521
G1 X60.717 Y74.1 E.02521
G1 X61.159 Y73.465 E.02521
G1 X61.684 Y72.899 E.02521
G1 X62.283 Y72.411 E.02521
G1 X62.944 Y72.011 E.02521
G1 X63.655 Y71.707 E.02521
G1 X64.401 Y71.505 E.02521
G1 X65.167 Y71.409 E.02521
G1 X65.94 Y71.42 E.02521
G1 X66.703 Y71.538 E.02521
G1 X67.443 Y71.762 E.02521
G1 X68.144 Y72.087 E.02521
G1 X68.793 Y72.505 E.02521
G1 X69.378 Y73.011 E.02521
G1 X69.887 Y73.592 E.02521
G1 X70.309 Y74.239 E.02521
;WIDTH:0.46803
G1 X70.649 Y74.933 E.02677
;WIDTH:0.499999
G1 X70.893 Y75.668 E.02885
G1 X71.017 Y76.435 E.02893
G1 X71.033 Y77.212 E.02893
G1 X70.941 Y77.983 E.02893
G1 X70.742 Y78.734 E.02893
G1 X70.441 Y79.449 E.02893
G1 X70.043 Y80.116 E.02893
G1 X69.557 Y80.722 E.02893
G1 X68.99 Y81.253 E.02893
G1 X68.356 Y81.701 E.02893
G1 X67.665 Y82.055 E.02893
G1 X66.931 Y82.311 E.02893
G1 X66.169 Y82.461 E.02893
G1 X65.394 Y82.505 E.02893
G1 X64.62 Y82.439 E.02893
G1 X63.863 Y82.267 E.02893
G1 X63.137 Y81.991 E.02893
G1 X62.456 Y81.617 E.02893
G1 X61.835 Y81.151 E.02893
G1 X61.284 Y80.604 E.02893
G1 X60.814 Y79.985 E.02893
G1 X60.436 Y79.307 E.02893
G1 X60.155 Y78.583 E.02893
;WIDTH:0.50994
G1 X59.973 Y77.828 E.02956
G1 X59.953 Y77.48 E.01328
G1 E-3.5 F3600
;WIPE_START
G1 F900
G1 X59.928 Y77.052 E-.64327
G1 X59.962 Y76.481 E-.85673
;WIPE_END
G1 Z.6 F9000
G1 X171.94 Y74.293
G1 Z.6
G1 Z.2
G1 E5 F2400
;TYPE:Bottom surface
;WIDTH:0.50049
G1 F1200
G1 X174.214 Y76.567 E.11991
G1 X175.262 Y77.956 E.06489
G1 X175.642 Y78.642 E.02926
G1 X170.909 Y73.909 E.24956
G1 X170.064 Y73.441 E.03605
G1 X169.626 Y73.273 E.01747
G1 X176.278 Y79.925 E.35076
G1 X176.682 Y80.976 E.04198
G1 X168.577 Y72.871 E.4274
G1 X168.439 Y72.818 E.00551
G1 X167.711 Y72.652 E.02783
G1 X176.903 Y81.844 E.48467
G1 X177.097 Y82.686 E.03221
G1 X166.873 Y72.462 E.53911
G1 X166.702 Y72.423 E.00655
G1 X166.138 Y72.373 E.02111
G1 X177.178 Y83.414 E.58215
G1 X177.241 Y84.123 E.02655
G1 X165.429 Y72.312 E.62281
G1 X165.003 Y72.275 E.01595
G1 X164.758 Y72.288 E.00915
G1 X177.281 Y84.811 E.66035
G1 X177.282 Y85.459 E.02417
G1 X164.143 Y72.32 E.69283
G1 X163.529 Y72.352 E.02295
G1 X177.283 Y86.107 E.7253
G1 X177.285 Y86.756 E.02417
G1 X162.955 Y72.426 E.75558
G1 X162.414 Y72.532 E.02057
G1 X177.286 Y87.404 E.78421
G1 X177.287 Y88.052 E.02417
M73 P2 R123
G1 X161.872 Y72.637 E.81283
G1 X161.553 Y72.7 E.01214
G1 X161.355 Y72.768 E.00778
G1 X177.288 Y88.7 E.84014
G1 X177.289 Y89.349 E.02417
G1 X160.874 Y72.933 E.86558
G1 X160.393 Y73.099 E.01898
G1 X177.291 Y89.997 E.89102
G1 X177.292 Y90.645 E.02417
G1 X159.912 Y73.265 E.91645
G1 X159.483 Y73.483 E.01795
G1 X177.293 Y91.293 E.93915
G1 X177.294 Y91.942 E.02417
G1 X159.054 Y73.702 E.96181
G1 X158.625 Y73.92 E.01794
G1 X177.295 Y92.59 E.98447
G1 X177.296 Y93.238 E.02417
G1 X158.197 Y74.139 E1.0071
G1 X157.772 Y74.361 E.01788
G1 X177.298 Y93.887 E1.02957
G1 X177.299 Y94.535 E.02417
G1 X157.347 Y74.584 E1.05204
G1 X156.922 Y74.806 E.01788
G1 X177.3 Y95.183 E1.07452
G1 X177.301 Y95.831 E.02417
G1 X156.497 Y75.028 E1.09699
G1 X156.072 Y75.25 E.01788
G1 X177.302 Y96.48 E1.11947
G1 X177.303 Y97.128 E.02417
G1 X155.647 Y75.472 E1.14194
G1 X155.222 Y75.694 E.01788
G1 X177.305 Y97.776 E1.16441
G1 X177.306 Y98.425 E.02417
G1 X154.797 Y75.916 E1.18689
G1 X154.372 Y76.138 E.01788
G1 X177.307 Y99.073 E1.20936
G1 X177.308 Y99.721 E.02417
G1 X153.947 Y76.36 E1.23183
G1 X153.522 Y76.582 E.01788
G1 X177.309 Y100.369 E1.25431
