; HEADER_BLOCK_START
; generated by OrcaSlicer 2.3.0 on 2025-04-11 at 08:17:02
; total layer number: 50
;_GP_TOTAL_LAYER_NUMBER_PLACEHOLDER
; filament_density: 1.24
; filament_diameter: 1.75
; max_z_height: 10.00
; HEADER_BLOCK_END

; THUMBNAIL_BLOCK_START

;
; THUMBNAIL_BLOCK_END

; THUMBNAIL_BLOCK_START

;
; THUMBNAIL_BLOCK_END

; external perimeters extrusion width = 0.40mm
; perimeters extrusion width = 0.45mm
; infill extrusion width = 0.45mm
; solid infill extrusion width = 0.40mm
; top infill extrusion width = 0.40mm
; first layer extrusion width = 0.50mm

; external perimeters extrusion width = 0.40mm
; perimeters extrusion width = 0.45mm
; infill extrusion width = 0.45mm
; solid infill extrusion width = 0.40mm
; top infill extrusion width = 0.40mm
; first layer extrusion width = 0.50mm

; external perimeters extrusion width = 0.40mm
; perimeters extrusion width = 0.45mm
; infill extrusion width = 0.45mm
; solid infill extrusion width = 0.40mm
; top infill extrusion width = 0.40mm
; first layer extrusion width = 0.50mm

; EXECUTABLE_BLOCK_START
M73 P0 R167
M201 X500 Y500 Z500 E5000
M203 X500 Y500 Z10 E60
M204 P500 R1000 T500
M205 X8.00 Y8.00 Z0.40 E5.00 ; sets the jerk limits, mm/sec
;TYPE:Custom
G90 ; use absolute coordinates
M83 ; extruder relative mode
M140 S60 ; set final bed temp
M104 S150 ; set temporary nozzle temp to prevent oozing during homing
G4 S10 ; allow partial nozzle warmup
G28 ; home all axis
G1 Z50 F240
G1 X2 Y10 F3000
M104 S220 ; set final nozzle temp
M190 S60 ; wait for bed temp to stabilize
M109 S220 ; wait for nozzle temp to stabilize
G1 Z0.28 F240
G92 E0
G1 Y140 E10 F1500 ; prime the nozzle
G1 X2.3 F5000
G92 E0
G1 Y10 E10 F1200 ; prime the nozzle
G92 E0
G90
G21
M83 ; use relative distances for extrusion
; filament start gcode
M106 S0
;LAYER_CHANGE
;Z:0.2
;HEIGHT:0.2
;BEFORE_LAYER_CHANGE
;0.2
G92 E0

G1 E-5 F3600
M73 P0 R166
;_SET_FAN_SPEED_CHANGING_LAYER
M204 S500
G1 Z.6 F9000
G1 X93.923 Y93.924
G1 Z.6
G1 Z.2
G1 E5 F2400
;TYPE:Skirt
;WIDTH:0.5
G1 F3000
G1 X161.328 Y26.519 E3.55048
G1 X162.496 Y25.904 E.04917
G1 X163.807 Y26.058 E.04917
G1 X164.48 Y26.519 E.03037
G1 X173.234 Y35.273 E.4611
G1 X173.792 Y36.208 E.04058
G1 X197.614 Y115.586 E3.08677
G1 X214.757 Y175.702 E2.32836
G1 X215.49 Y179.125 E.13038
G1 X215.766 Y182.773 E.13627
G1 X215.533 Y186.424 E.13627
G1 X214.793 Y190.007 E.13627
G1 X213.436 Y193.736 E.14782
G1 X211.699 Y196.956 E.13627
G1 X209.531 Y199.903 E.13627
G1 X206.974 Y202.52 E.13627
G1 X204.078 Y204.755 E.13627
G1 X201.178 Y206.429 E.12471
G1 X197.795 Y207.82 E.13627
G1 X193.877 Y208.787 E.15029
G1 X190.303 Y209.141 E.13377
G1 X186.648 Y208.992 E.13627
G1 X29.823 Y180.477 E5.93688
G1 X28.647 Y179.86 E.04949
G1 X19.893 Y171.106 E.4611
G1 X19.278 Y169.938 E.04917
G1 X19.431 Y168.627 E.04917
G1 X19.893 Y167.955 E.03037
G1 X93.895 Y93.952 E3.89801
; printing object lapdock.stl_2 id:105553120651136 copy 0
G1 E-3.8 F3600
;WIPE_START
G1 F3000
G1 X94.602 Y93.245 E-1.2
;WIPE_END
G1 Z.6 F9000
G1 X173.959 Y154.345 Z.6
G1 Z.2
G1 E5 F2400
;TYPE:Inner wall
;WIDTH:0.499999
G1 F900
G1 X174.032 Y154.194 E.00626
G1 X183.61 Y120.53 E1.30362
G1 X184.091 Y121.429 E.03798
G1 X184.632 Y122.154 E.03367
G1 X185.267 Y122.796 E.03367
G1 X185.987 Y123.344 E.03367
G1 X186.775 Y123.786 E.03367
G1 X187.617 Y124.115 E.03367
G1 X188.497 Y124.322 E.03367
G1 X189.397 Y124.406 E.03367
G1 X190.3 Y124.363 E.03367
G1 X191.188 Y124.195 E.03367
G1 X192.044 Y123.905 E.03367
G1 X192.852 Y123.499 E.03367
G1 X193.595 Y122.985 E.03367
G1 X194.259 Y122.371 E.03367
G1 X194.832 Y121.672 E.03367
G1 X195.226 Y121.04 E.02774
G1 X195.484 Y120.489 E.02268
G1 X211.483 Y176.594 E2.17301
G1 X212.154 Y179.751 E.1202
G1 X212.376 Y182.928 E.11865
G1 X212.154 Y186.106 E.11865
G1 X211.492 Y189.222 E.11865
G1 X210.402 Y192.215 E.11865
G1 X208.907 Y195.028 E.11865
G1 X207.034 Y197.605 E.11865
G1 X204.822 Y199.897 E.11865
G1 X202.311 Y201.858 E.11865
G1 X199.553 Y203.45 E.11865
G1 X196.601 Y204.643 E.11859
G1 X193.443 Y205.421 E.12112
G1 X190.34 Y205.747 E.11621
G1 X187.157 Y205.636 E.11865
G1 X184.02 Y205.083 E.11865
G1 X180.989 Y204.098 E.11869
G1 X104.614 Y167.045 E3.16176
G1 X104.177 Y166.99 E.0164
G1 X103.806 Y167.073 E.01419
G1 X103.489 Y167.267 E.01381
G1 X103.248 Y167.557 E.01406
G1 X103.122 Y167.877 E.0128
G1 X100.337 Y180.037 E.46467
G1 X100.226 Y179.816 E.0092
G1 X99.738 Y179.056 E.03367
G1 X99.148 Y178.371 E.03367
G1 X98.469 Y177.774 E.03367
G1 X97.714 Y177.278 E.03367
G1 X96.896 Y176.892 E.03367
G1 X96.033 Y176.623 E.03367
G1 X95.141 Y176.477 E.03367
G1 X94.238 Y176.456 E.03367
G1 X93.34 Y176.562 E.03367
G1 X92.465 Y176.791 E.03367
G1 X91.632 Y177.14 E.03367
G1 X90.854 Y177.602 E.03367
G1 X90.149 Y178.167 E.03367
G1 X89.529 Y178.825 E.03367
G1 X89.007 Y179.563 E.03367
G1 X88.744 Y180.056 E.02081
G1 X81.995 Y150.628 E1.12456
G1 X81.742 Y148.824 E.06785
G1 X81.742 Y147.033 E.06668
G1 X81.991 Y145.26 E.06668
G1 X82.484 Y143.539 E.06668
G1 X83.212 Y141.904 E.06668
G1 X84.161 Y140.385 E.06668
G1 X85.312 Y139.014 E.06668
G1 X86.643 Y137.816 E.06668
G1 X88.127 Y136.815 E.06668
G1 X89.736 Y136.03 E.06668
G1 X91.439 Y135.477 E.06668
G1 X93.202 Y135.166 E.06668
G1 X94.991 Y135.103 E.06668
G1 X96.772 Y135.29 E.06669
G1 X98.582 Y135.742 E.0695
G1 X172.774 Y155.021 E2.85514
G1 X173.216 Y154.989 E.0165
G1 X173.581 Y154.823 E.01494
G1 X173.856 Y154.556 E.01425
G1 X173.941 Y154.381 E.00725
G1 X173.548 Y154.153 F9000
G1 F900
G1 X173.593 Y154.069 E.00354
G1 X183.602 Y118.889 E1.36234
G1 X183.767 Y119.634 E.02845
G1 X184.061 Y120.422 E.0313
G1 X184.461 Y121.16 E.0313
G1 X184.96 Y121.836 E.0313
G1 X185.549 Y122.436 E.0313
G1 X186.215 Y122.948 E.0313
G1 X186.946 Y123.362 E.0313
G1 X187.728 Y123.671 E.0313
G1 X188.545 Y123.868 E.0313
G1 X189.381 Y123.949 E.0313
G1 X190.22 Y123.913 E.0313
G1 X191.047 Y123.761 E.0313
G1 X191.844 Y123.495 E.0313
G1 X192.596 Y123.12 E.0313
G1 X193.289 Y122.645 E.0313
G1 X193.909 Y122.078 E.0313
G1 X194.444 Y121.43 E.0313
G1 X194.884 Y120.714 E.0313
G1 X195.219 Y119.943 E.0313
G1 X195.424 Y119.227 E.02774
G1 X195.487 Y118.832 E.01491
G1 X211.927 Y176.484 E2.23291
G1 X212.608 Y179.687 E.12197
G1 X212.835 Y182.928 E.12103
G1 X212.608 Y186.17 E.12103
G1 X211.932 Y189.348 E.12103
G1 X210.821 Y192.402 E.12103
G1 X209.295 Y195.271 E.12103
G1 X207.385 Y197.9 E.12103
G1 X205.128 Y200.237 E.12103
G1 X202.568 Y202.238 E.12103
G1 X199.754 Y203.862 E.12103
G1 X196.742 Y205.079 E.12099
G1 X193.522 Y205.873 E.1235
G1 X190.356 Y206.205 E.11857
G1 X187.109 Y206.092 E.12103
G1 X183.909 Y205.528 E.12103
G1 X180.818 Y204.523 E.12106
G1 X104.535 Y167.515 E3.15795
G1 X104.235 Y167.446 E.01147
M73 P0 R165
G1 X103.947 Y167.51 E.01099
G1 X103.697 Y167.708 E.01188
G1 X103.567 Y167.979 E.01117
G1 X100.432 Y181.667 E.52303
G1 X100.186 Y180.823 E.03272
G1 X99.839 Y180.059 E.0313
G1 X99.388 Y179.35 E.0313
G1 X98.842 Y178.71 E.0313
G1 X98.214 Y178.153 E.0313
G1 X97.513 Y177.689 E.0313
G1 X96.755 Y177.326 E.0313
G1 X95.954 Y177.073 E.0313
G1 X95.125 Y176.934 E.0313
G1 X94.285 Y176.911 E.0313
G1 X93.45 Y177.005 E.0313
G1 X92.637 Y177.215 E.0313
G1 X91.86 Y177.536 E.0313
G1 X91.136 Y177.962 E.0313
G1 X90.478 Y178.485 E.0313
G1 X89.899 Y179.094 E.0313
G1 X89.41 Y179.777 E.0313
G1 X89.022 Y180.522 E.0313
G1 X88.767 Y181.222 E.02774
G1 X88.656 Y181.714 E.01878
G1 X81.545 Y150.711 E1.18474
G1 X81.284 Y148.855 E.06978
G1 X81.284 Y147.001 E.06907
G1 X81.543 Y145.165 E.06907
M73 P1 R165
G1 X82.054 Y143.382 E.06907
G1 X82.808 Y141.688 E.06907
G1 X83.791 Y140.116 E.06907
G1 X84.982 Y138.695 E.06907
G1 X86.36 Y137.455 E.06907
G1 X87.898 Y136.418 E.06907
G1 X89.564 Y135.605 E.06907
G1 X91.328 Y135.032 E.06907
G1 X93.154 Y134.71 E.06907
G1 X95.007 Y134.645 E.06906
G1 X96.851 Y134.839 E.06907
G1 X98.695 Y135.299 E.07078
G1 X172.873 Y154.574 E2.8546
G1 X173.208 Y154.51 E.01272
G1 X173.452 Y154.33 E.01129
G1 X173.529 Y154.188 E.00598
G1 X173.153 Y153.944 F9000
;TYPE:Outer wall
G1 F900
G1 X183.431 Y117.817 E1.399
G1 X183.636 Y117.039 E.02997
;WIDTH:0.468028
G1 X183.843 Y116.265 E.02774
;WIDTH:0.443266
G1 X184.13 Y115.487 E.02704
G1 X184.522 Y114.758 E.02703
G1 X185.012 Y114.09 E.02703
G1 X185.591 Y113.497 E.02703
G1 X186.246 Y112.99 E.02703
G1 X186.965 Y112.579 E.02703
G1 X187.735 Y112.272 E.02703
G1 X188.54 Y112.075 E.02703
G1 X189.365 Y111.994 E.02704
G1 X190.192 Y112.025 E.02701
G1 X191.007 Y112.173 E.02703
G1 X191.794 Y112.433 E.02703
G1 X192.537 Y112.8 E.02703
G1 X193.221 Y113.266 E.02703
G1 X193.834 Y113.823 E.02703
G1 X194.364 Y114.46 E.02703
G1 X194.8 Y115.165 E.02703
G1 X195.133 Y115.924 E.02703
;WIDTH:0.458508
G1 X195.377 Y116.704 E.02767
;WIDTH:0.484224
G1 X195.476 Y117.097 E.01458
;WIDTH:0.50994
G1 X195.783 Y118.205 E.04377
;WIDTH:0.499999
G1 X212.371 Y176.373 E2.25292
G1 X213.062 Y179.623 E.12374
G1 X213.293 Y182.928 E.12341
G1 X213.062 Y186.234 E.12341
G1 X212.373 Y189.475 E.12341
G1 X211.239 Y192.588 E.12341
G1 X209.684 Y195.514 E.12341
G1 X207.736 Y198.194 E.12341
G1 X205.435 Y200.578 E.12341
G1 X202.824 Y202.617 E.12341
G1 X199.954 Y204.274 E.12341
G1 X196.883 Y205.515 E.1234
G1 X193.601 Y206.324 E.12588
G1 X190.372 Y206.663 E.12093
G1 X187.061 Y206.548 E.12341
G1 X183.798 Y205.972 E.12341
G1 X180.646 Y204.948 E.12342
G1 X104.301 Y167.909 E3.16055
G1 X104.118 Y167.936 E.00688
G1 X104.013 Y168.081 E.00668
G1 X100.513 Y183.41 E.58565
;WIDTH:0.478715
G1 X100.35 Y184.195 E.02846
;WIDTH:0.446405
G1 X100.114 Y184.986 E.02714
;WIDTH:0.443267
G1 X99.773 Y185.741 E.02703
G1 X99.331 Y186.441 E.02703
G1 X98.796 Y187.074 E.02703
G1 X98.177 Y187.625 E.02703
G1 X97.488 Y188.085 E.02703
G1 X96.742 Y188.445 E.02703
G1 X95.953 Y188.697 E.02703
G1 X95.136 Y188.836 E.02704
G1 X94.308 Y188.862 E.02701
G1 X93.485 Y188.772 E.02703
G1 X92.682 Y188.567 E.02703
G1 X91.915 Y188.253 E.02703
G1 X91.199 Y187.836 E.02703
G1 X90.549 Y187.323 E.02703
G1 X89.976 Y186.724 E.02703
G1 X89.493 Y186.051 E.02703
G1 X89.107 Y185.318 E.02703
G1 X88.827 Y184.538 E.02703
;WIDTH:0.462261
G1 X88.634 Y183.747 E.02782
;WIDTH:0.489583
G1 X88.556 Y183.349 E.01479
;WIDTH:0.516904
G1 X88.304 Y182.226 E.04445
;WIDTH:0.499999
G1 X81.095 Y150.794 E1.20112
G1 X80.827 Y148.887 E.0717
G1 X80.827 Y146.969 E.07145
G1 X81.094 Y145.07 E.07145
G1 X81.623 Y143.226 E.07145
G1 X82.403 Y141.473 E.07145
G1 X83.42 Y139.847 E.07145
G1 X84.653 Y138.377 E.07145
G1 X86.078 Y137.094 E.07145
G1 X87.669 Y136.021 E.07145
G1 X89.393 Y135.18 E.07145
G1 X91.217 Y134.587 E.07145
G1 X93.106 Y134.254 E.07145
G1 X95.023 Y134.187 E.07145
G1 X96.931 Y134.388 E.07145
G1 X98.808 Y134.856 E.07205
G1 X172.876 Y154.103 E2.85036
G1 X173.044 Y154.082 E.00632
G1 X173.128 Y153.976 E.00504
G1 E-3.5 F3600
;WIPE_START
G1 F900
G1 X173.402 Y153.014 E-1.5
;WIPE_END
G1 Z.6 F9000
G1 X184.008 Y117.574 Z.6
G1 Z.2
G1 E5 F2400
G1 F900
G1 X184.043 Y117.17 E.01508
;WIDTH:0.471819
G1 X184.216 Y116.415 E.02708
;WIDTH:0.443268
G1 X184.478 Y115.688 E.02521
G1 X184.839 Y115.005 E.02521
G1 X185.292 Y114.379 E.02521
G1 X185.827 Y113.822 E.02521
G1 X186.435 Y113.345 E.02521
G1 X187.103 Y112.957 E.02521
G1 X187.819 Y112.665 E.02521
G1 X188.568 Y112.476 E.02521
G1 X189.336 Y112.394 E.02521
G1 X190.108 Y112.419 E.02521
G1 X190.87 Y112.551 E.02521
G1 X191.605 Y112.788 E.02521
G1 X192.3 Y113.125 E.02521
G1 X192.942 Y113.555 E.02521
G1 X193.518 Y114.071 E.02521
G1 X194.016 Y114.662 E.02521
G1 X194.427 Y115.316 E.02521
G1 X194.743 Y116.021 E.02521
;WIDTH:0.456528
G1 X194.964 Y116.761 E.02604
;WIDTH:0.483286
G1 X195.032 Y117.142 E.01389
;WIDTH:0.510044
G1 X195.1 Y117.523 E.01473
G1 X195.098 Y118.301 E.02959
;WIDTH:0.499999
G1 X194.992 Y119.07 E.02893
G1 X194.78 Y119.817 E.02893
G1 X194.466 Y120.528 E.02893
G1 X194.056 Y121.187 E.02893
G1 X193.559 Y121.784 E.02893
G1 X192.983 Y122.305 E.02893
G1 X192.34 Y122.741 E.02893
G1 X191.643 Y123.084 E.02893
G1 X190.905 Y123.326 E.02893
G1 X190.141 Y123.463 E.02893
G1 X189.365 Y123.492 E.02893
G1 X188.592 Y123.413 E.02893
G1 X187.838 Y123.228 E.02893
G1 X187.117 Y122.939 E.02893
G1 X186.444 Y122.552 E.02893
G1 X185.83 Y122.076 E.02893
G1 X185.289 Y121.519 E.02893
G1 X184.831 Y120.892 E.02893
G1 X184.464 Y120.207 E.02893
G1 X184.197 Y119.478 E.02893
G1 X184.033 Y118.719 E.02893
G1 X183.977 Y117.944 E.02893
G1 X184.005 Y117.614 E.01236
G1 E-3.5 F3600
;WIPE_START
G1 F900
G1 X184.043 Y117.17 E-.66743
G1 X184.167 Y116.629 E-.83257
;WIPE_END
G1 Z.6 F9000
G1 X91.403 Y178.333 Z.6
G1 Z.2
G1 E5 F2400
G1 F900
G1 X91.417 Y178.322 E.00067
G1 X92.089 Y177.932 E.02893
G1 X92.808 Y177.639 E.02893
G1 X93.561 Y177.449 E.02893
G1 X94.333 Y177.366 E.02893
G1 X95.109 Y177.39 E.02893
G1 X95.875 Y177.523 E.02893
G1 X96.614 Y177.761 E.02893
G1 X97.313 Y178.099 E.02893
G1 X97.958 Y178.532 E.02893
G1 X98.537 Y179.05 E.02893
G1 X99.038 Y179.643 E.02893
G1 X99.451 Y180.301 E.02893
G1 X99.769 Y181.009 E.02893
G1 X99.985 Y181.755 E.02893
G1 X100.095 Y182.524 E.02893
G1 X100.089 Y183.301 E.02893
;WIDTH:0.483478
G1 X99.965 Y184.066 E.02785
;WIDTH:0.446848
G1 X99.753 Y184.809 E.02544
;WIDTH:0.443266
G1 X99.44 Y185.516 E.02521
G1 X99.032 Y186.172 E.02521
G1 X98.537 Y186.766 E.02521
G1 X97.964 Y187.284 E.02521
G1 X97.325 Y187.718 E.02521
G1 X96.631 Y188.058 E.02521
;WIDTH:0.443268
G1 X95.897 Y188.299 E.02521
G1 X95.136 Y188.435 E.02521
G1 X94.364 Y188.464 E.02521
G1 X93.595 Y188.385 E.02521
G1 X92.845 Y188.2 E.02521
G1 X92.128 Y187.912 E.02521
G1 X91.458 Y187.528 E.02521
G1 X90.848 Y187.054 E.02521
G1 X90.31 Y186.499 E.02521
G1 X89.854 Y185.875 E.02521
G1 X89.489 Y185.194 E.02521
G1 X89.223 Y184.468 E.02521
;WIDTH:0.459754
G1 X89.053 Y183.715 E.02625
;WIDTH:0.490047
G1 X89.01 Y183.33 E.01411
;WIDTH:0.52034
G1 X88.966 Y182.945 E.01507
G1 X89.029 Y182.169 E.03027
;WIDTH:0.499999
G1 X89.188 Y181.409 E.02893
G1 X89.451 Y180.679 E.02893
G1 X89.814 Y179.992 E.02893
G1 X90.269 Y179.362 E.02893
G1 X90.807 Y178.802 E.02893
G1 X91.372 Y178.358 E.02676
G1 E-3.5 F3600
;WIPE_START
G1 F900
G1 X91.417 Y178.322 E-.08708
G1 X92.089 Y177.932 E-1.16495
G1 X92.242 Y177.87 E-.24797
;WIPE_END
G1 Z.6 F9000
G1 X195.826 Y122.188
G1 Z.6
G1 Z.2
G1 E5 F2400
;TYPE:Bottom surface
;WIDTH:0.500103
G1 F1200
G1 X195.259 Y121.621 E.02989
G1 X195.006 Y122.014 E.01743
G1 X195.785 Y122.793 E.04103
G1 X196.043 Y123.698 E.03504
G1 X194.706 Y122.362 E.0704
G1 X194.407 Y122.709 E.01708
G1 X196.301 Y124.602 E.09977
G1 X196.559 Y125.507 E.03504
G1 X194.066 Y123.014 E.13134
G1 X193.721 Y123.316 E.01707
G1 X196.816 Y126.411 E.1631
G1 X197.074 Y127.316 E.03504
G1 X193.337 Y123.579 E.1969
G1 X192.946 Y123.834 E.0174
G1 X197.332 Y128.22 E.23108
G1 X197.59 Y129.125 E.03504
G1 X192.516 Y124.051 E.26733
G1 X192.076 Y124.257 E.0181
G1 X197.848 Y130.029 E.30409
G1 X198.106 Y130.934 E.03504
G1 X191.591 Y124.418 E.34326
G1 X191.097 Y124.571 E.01926
G1 X198.364 Y131.838 E.38288
G1 X198.622 Y132.743 E.03504
G1 X190.54 Y124.661 E.4258
G1 X190.16 Y124.722 E.01433
G1 X189.962 Y124.729 E.0074
G1 X198.88 Y133.647 E.46985
G1 X199.138 Y134.552 E.03504
G1 X189.331 Y124.745 E.51668
G1 X188.618 Y124.678 E.02669
G1 X199.396 Y135.456 E.56785
G1 X199.654 Y136.36 E.03504
G1 X187.803 Y124.51 E.62434
G1 X187.528 Y124.446 E.01054
G1 X186.817 Y124.17 E.02842
G1 X199.912 Y137.265 E.68992
G1 X200.169 Y138.169 E.03504
M73 P1 R164
G1 X183.648 Y121.648 E.87043
G1 X183.505 Y122.152 E.0195
G1 X200.427 Y139.074 E.89157
G1 X200.685 Y139.978 E.03504
G1 X183.362 Y122.655 E.9127
G1 X183.219 Y123.158 E.0195
G1 X200.943 Y140.883 E.93384
G1 X201.201 Y141.787 E.03504
G1 X183.075 Y123.662 E.95497
G1 X182.932 Y124.165 E.0195
G1 X201.459 Y142.692 E.9761
G1 X201.717 Y143.596 E.03504
G1 X182.789 Y124.668 E.99724
G1 X182.646 Y125.172 E.0195
G1 X201.975 Y144.501 E1.01837
G1 X202.233 Y145.405 E.03504
G1 X182.503 Y125.675 E1.03951
G1 X182.359 Y126.178 E.0195
G1 X202.491 Y146.31 E1.06064
G1 X202.749 Y147.214 E.03504
G1 X182.216 Y126.682 E1.08177
G1 X182.073 Y127.185 E.0195
G1 X203.007 Y148.119 E1.10291
G1 X203.265 Y149.023 E.03504
G1 X181.93 Y127.688 E1.12404
G1 X181.787 Y128.192 E.0195
G1 X203.522 Y149.928 E1.14517
G1 X203.78 Y150.832 E.03504
G1 X181.643 Y128.695 E1.16631
G1 X181.5 Y129.199 E.0195
G1 X204.038 Y151.737 E1.18744
